fixtures/luts/teal-orange.cube
# Cool shadows, warm midtones
# Generated by scripts/make_luts.py — part of immich-addons, MIT licensed.
TITLE "teal-orange"
LUT_3D_SIZE 9
DOMAIN_MIN 0.0 0.0 0.0
DOMAIN_MAX 1.0 1.0 1.0
0.000000 0.010000 0.100000
0.077693 0.009490 0.094699
0.205456 0.009022 0.089426
0.333290 0.008596 0.084182
0.461195 0.008213 0.078966
0.589170 0.007872 0.073778
0.717216 0.007574 0.068618
0.845333 0.007318 0.063487
0.973520 0.007104 0.058384
0.000000 0.133452 0.082280
0.087270 0.133084 0.077074
0.215271 0.132759 0.071896
0.343343 0.132476 0.066747
0.471485 0.132235 0.061626
0.599698 0.132037 0.056533
0.727981 0.131881 0.051469
0.856335 0.131767 0.046432
0.984760 0.131696 0.041424
0.000000 0.257383 0.064879
0.097646 0.257158 0.059769
0.225885 0.256975 0.054686
0.354194 0.256835 0.049632
0.482574 0.256736 0.044606
0.611025 0.256681 0.039608
0.739546 0.256667 0.034638
0.868137 0.256696 0.029697
0.996800 0.256768 0.024784
0.000000 0.381794 0.047799
0.108822 0.381711 0.042783
0.237298 0.381671 0.037795
0.365845 0.381673 0.032836
0.494463 0.381718 0.027905
0.623151 0.381804 0.023002
0.751909 0.381934 0.018128
0.880739 0.382105 0.013281
1.000000 0.382319 0.008463
0.000000 0.506684 0.031038
0.120797 0.506744 0.026117
0.249511 0.506846 0.021224
0.378295 0.506991 0.016360
0.507150 0.507178 0.011524
0.636076 0.507407 0.006716
0.765072 0.507679 0.001937
0.894139 0.507993 0.000000
1.000000 0.508350 0.000000
0.004690 0.632054 0.014596
0.133571 0.632257 0.009770
0.262523 0.632502 0.004973
0.391544 0.632789 0.000204
0.520637 0.633118 0.000000
0.649800 0.633490 0.000000
0.779034 0.633904 0.000000
0.908339 0.634361 0.000000
1.000000 0.634860 0.000000
0.018026 0.757904 0.000000
0.147145 0.758249 0.000000
0.276333 0.758636 0.000000
0.405593 0.759066 0.000000
0.534923 0.759538 0.000000
0.664324 0.760052 0.000000
0.793795 0.760609 0.000000
0.923337 0.761208 0.000000
1.000000 0.761850 0.000000
0.032161 0.884233 0.000000
0.161517 0.884720 0.000000
0.290944 0.885250 0.000000
0.420441 0.885822 0.000000
0.550009 0.886437 0.000000
0.679647 0.887094 0.000000
0.809356 0.887794 0.000000
0.939135 0.888535 0.000000
1.000000 0.889319 0.000000
0.047096 1.000000 0.000000
0.176689 1.000000 0.000000
0.306353 1.000000 0.000000
0.436088 1.000000 0.000000
0.565893 1.000000 0.000000
0.695769 1.000000 0.000000
0.825716 1.000000 0.000000
0.955733 1.000000 0.000000
1.000000 1.000000 0.000000
0.000000 0.009822 0.223197
0.078623 0.009326 0.217905
0.206411 0.008872 0.212642
0.334269 0.008461 0.207408
0.462197 0.008092 0.202201
0.590197 0.007766 0.197023
0.718267 0.007482 0.191873
0.846407 0.007240 0.186751
0.974618 0.007041 0.181657
0.000000 0.133322 0.205509
0.088281 0.132969 0.200313
0.216306 0.132658 0.195144
0.344402 0.132389 0.190005
0.472568 0.132163 0.184893
0.600805 0.131979 0.179810
0.729112 0.131837 0.174755
0.857491 0.131738 0.169728
0.985939 0.131682 0.164730
0.000000 0.257302 0.188141
0.098738 0.257091 0.183039
0.227001 0.256923 0.177966
0.355334 0.256796 0.172922
0.483738 0.256713 0.167905
0.612212 0.256671 0.162917
0.740757 0.256672 0.157957
0.869373 0.256716 0.153025
0.998060 0.256802 0.148122
0.000000 0.381761 0.171092
0.109995 0.381693 0.166086
0.238495 0.381667 0.161108
0.367066 0.381683 0.156158
0.495707 0.381742 0.151237
0.624419 0.381843 0.146344
0.753202 0.381987 0.141479
0.882055 0.382173 0.136642
1.000000 0.382401 0.131834
0.000000 0.506700 0.154363
0.122050 0.506774 0.149452
0.250788 0.506891 0.144569
0.379596 0.507050 0.139715
0.508475 0.507251 0.134888
0.637425 0.507495 0.130090
0.766445 0.507781 0.125320
0.895536 0.508110 0.120578
1.000000 0.508481 0.115865
0.006000 0.632118 0.137954
0.134905 0.632335 0.133138
0.263880 0.632594 0.128350
0.392926 0.632896 0.123591
0.522043 0.633240 0.118859
0.651230 0.633626 0.114156
0.780488 0.634055 0.109481
0.909816 0.634526 0.104835
1.000000 0.635039 0.100216
0.019417 0.758016 0.121865
0.148559 0.758376 0.117144
0.277772 0.758777 0.112451
0.407056 0.759221 0.107786
0.536410 0.759708 0.103150
0.665835 0.760237 0.098542
0.795330 0.760808 0.093962
0.924896 0.761422 0.089410
1.000000 0.762078 0.084887
0.033633 0.884394 0.106095
0.163012 0.884895 0.101469
0.292463 0.885440 0.096871
0.421984 0.886026 0.092302
0.551576 0.886655 0.087760
0.681238 0.887327 0.083247
0.810971 0.888041 0.078762
0.940775 0.888797 0.074306
1.000000 0.889595 0.069878
0.048648 1.000000 0.090645
0.178265 1.000000 0.086114
0.307953 1.000000 0.081611
0.437712 1.000000 0.077137
0.567541 1.000000 0.072690
0.697441 1.000000 0.068272
0.827412 1.000000 0.063883
0.957453 1.000000 0.059521
1.000000 1.000000 0.055188
0.000000 0.009649 0.346397
0.079562 0.009167 0.341115
0.207373 0.008728 0.335861
0.335255 0.008331 0.330636
0.463208 0.007977 0.325439
0.591231 0.007665 0.320271
0.719325 0.007395 0.315130
0.847490 0.007168 0.310018
0.975725 0.006983 0.304934
0.000000 0.133197 0.328741
0.089301 0.132858 0.323554
0.217350 0.132562 0.318396
0.345469 0.132308 0.313266
0.473659 0.132096 0.308164
0.601920 0.131926 0.303090
0.730252 0.131799 0.298045
0.858654 0.131714 0.293028
0.987127 0.131672 0.288039
0.000000 0.257225 0.311405
0.099838 0.257029 0.306313
0.228125 0.256875 0.301250
0.356482 0.256763 0.296215
0.484910 0.256694 0.291208
0.613408 0.256667 0.286229
0.741977 0.256682 0.281279
0.870617 0.256740 0.276357
0.999327 0.256840 0.271463
0.000000 0.381733 0.294389
0.111175 0.381679 0.289392
0.239700 0.381668 0.284424
0.368294 0.381699 0.279484
0.496960 0.381772 0.274572
0.625696 0.381887 0.269688
0.754502 0.382045 0.264833
0.883380 0.382246 0.260006
1.000000 0.382489 0.255207
0.000000 0.506720 0.277692
0.123312 0.506809 0.272791
0.252073 0.506940 0.267917
0.380906 0.507113 0.263072
0.509809 0.507329 0.258256
0.638782 0.507587 0.253467
0.767827 0.507888 0.248707
0.896941 0.508231 0.243975
1.000000 0.508616 0.239271
0.007319 0.632187 0.261315
0.136247 0.632418 0.256509
0.265247 0.632692 0.251731
0.394316 0.633008 0.246981
0.523457 0.633366 0.242259
0.652668 0.633767 0.237565
0.781950 0.634210 0.232900
0.911302 0.634695 0.228263
1.000000 0.635223 0.223654
0.020816 0.758133 0.245258
0.149982 0.758507 0.240547
0.279219 0.758923 0.235864
0.408526 0.759382 0.231209
0.537905 0.759883 0.226582
0.667353 0.760426 0.221983
0.796873 0.761012 0.217413
0.926463 0.761640 0.212871
1.000000 0.762310 0.208357
0.035112 0.884559 0.229521
0.164516 0.885076 0.224904
0.293990 0.885634 0.220316
0.423536 0.886235 0.215756
0.553151 0.886879 0.211225
0.682838 0.887565 0.206721
0.812595 0.888293 0.202246
0.942422 0.889063 0.197799
1.000000 0.889876 0.193380
0.050208 1.000000 0.214103
0.179849 1.000000 0.209582
0.309561 1.000000 0.205088
0.439344 1.000000 0.200624
0.569197 1.000000 0.196187
0.699121 1.000000 0.191778
0.829116 1.000000 0.187398
0.959181 1.000000 0.183046
1.000000 1.000000 0.178723
0.000000 0.009480 0.469600
0.080509 0.009013 0.464328
0.208344 0.008589 0.459084
0.336250 0.008206 0.453868
0.464227 0.007866 0.448681
0.592274 0.007569 0.443522
0.720392 0.007313 0.438391
0.848581 0.007100 0.433288
0.976840 0.006930 0.428214
0.000000 0.133077 0.451976
0.090328 0.132753 0.446799
0.218401 0.132471 0.441650
0.346545 0.132231 0.436530
0.474759 0.132033 0.431438
0.603044 0.131878 0.426374
0.731399 0.131766 0.421338
0.859825 0.131695 0.416330
0.988322 0.131667 0.411351
0.000000 0.257154 0.434673
0.100947 0.256972 0.429591
0.229257 0.256832 0.424537
0.357638 0.256735 0.419511
0.486090 0.256680 0.414514
0.614613 0.256668 0.409545
0.743206 0.256697 0.404604
0.871869 0.256770 0.399692
1.000000 0.256884 0.394807
0.000000 0.381710 0.417689
0.112364 0.381671 0.412702
0.240912 0.381673 0.407743
0.369531 0.381719 0.402813
0.498221 0.381806 0.397910
0.626981 0.381936 0.393036
0.755811 0.382109 0.388190
0.884712 0.382323 0.383373
1.000000 0.382581 0.378584
0.000000 0.506746 0.401024
0.124581 0.506849 0.396133
0.253367 0.506994 0.391269
0.382223 0.507182 0.386433
0.511150 0.507412 0.381626
0.640148 0.507685 0.376847
0.769216 0.508000 0.372096
0.898355 0.508357 0.367374
1.000000 0.508757 0.362680
0.008645 0.632261 0.384680
0.137598 0.632507 0.379883
0.266621 0.632794 0.375114
0.395715 0.633125 0.370374
0.524879 0.633498 0.365662
0.654114 0.633913 0.360978
0.783420 0.634370 0.356322
0.912797 0.634870 0.351695
1.000000 0.635412 0.347095
0.022223 0.758256 0.368655
0.151413 0.758644 0.363953
0.280674 0.759074 0.359280
0.410005 0.759547 0.354634
0.539407 0.760062 0.350017
0.668880 0.760620 0.345428
0.798424 0.761220 0.340867
0.928038 0.761863 0.336335
1.000000 0.762547 0.331831
0.036600 0.884730 0.352950
0.166028 0.885261 0.348343
0.295526 0.885834 0.343764
0.425095 0.886449 0.339214
0.554735 0.887107 0.334692
0.684445 0.887807 0.330198
0.814226 0.888550 0.325732
0.944078 0.889335 0.321295
1.000000 0.890162 0.316886
0.051776 1.000000 0.337564
0.181442 1.000000 0.333053
0.311178 1.000000 0.328569
0.440984 1.000000 0.324114
0.570861 1.000000 0.319687
0.700809 1.000000 0.315288
0.830828 1.000000 0.310917
0.960917 1.000000 0.306575
1.000000 1.000000 0.302261
0.000000 0.009317 0.592806
0.081464 0.008864 0.587544
0.209323 0.008454 0.582309
0.337253 0.008086 0.577103
0.465254 0.007760 0.571926
0.593325 0.007477 0.566776
0.721467 0.007236 0.561655
0.849679 0.007038 0.556562
0.977963 0.006882 0.551497
0.000000 0.132963 0.575215
0.091364 0.132652 0.570048
0.219461 0.132384 0.564908
0.347628 0.132159 0.559797
0.475867 0.131976 0.554715
0.604175 0.131835 0.549660
0.732555 0.131737 0.544634
0.861005 0.131681 0.539636
0.989526 0.131667 0.534666
0.000000 0.257087 0.557944
0.102063 0.256920 0.552871
0.230398 0.256795 0.547827
0.358803 0.256712 0.542811
0.487278 0.256671 0.537823
0.615825 0.256673 0.532864
0.744442 0.256717 0.527933
0.873130 0.256804 0.523030
1.000000 0.256933 0.518155
0.000000 0.381692 0.540992
0.113561 0.381667 0.536015
0.242134 0.381684 0.531065
0.370776 0.381744 0.526145
0.499490 0.381846 0.521252
0.628274 0.381990 0.516387
0.757128 0.382177 0.511551
0.886053 0.382406 0.506743
1.000000 0.382678 0.501964
0.000000 0.506776 0.524360
0.125859 0.506893 0.519478
0.254669 0.507053 0.514623
0.383549 0.507255 0.509798
0.512500 0.507500 0.505000
0.641522 0.507787 0.500231
0.770614 0.508116 0.495489
0.899777 0.508488 0.490777
1.000000 0.508902 0.486092
0.009979 0.632340 0.508048
0.138956 0.632600 0.503260
0.268003 0.632902 0.498501
0.397121 0.633247 0.493770
0.526310 0.633634 0.489068
0.655569 0.634063 0.484394
0.784899 0.634535 0.479747
0.914299 0.635049 0.475130
1.000000 0.635606 0.470540
0.023638 0.758383 0.492055
0.152852 0.758785 0.487363
0.282137 0.759230 0.482699
0.411492 0.759717 0.478063
0.540918 0.760247 0.473455
0.670415 0.760819 0.468876
0.799983 0.761434 0.464325
0.929621 0.762090 0.459802
1.000000 0.762789 0.455308
0.038096 0.884905 0.476382
0.167547 0.885450 0.471785
0.297070 0.886038 0.467216
0.426663 0.886668 0.462675
0.556327 0.887340 0.458163
0.686061 0.888055 0.453678
0.815866 0.888811 0.449222
0.945741 0.889611 0.444795
1.000000 0.890453 0.440395
0.053353 1.000000 0.461029
0.183042 1.000000 0.456527
0.312802 1.000000 0.452053
0.442633 1.000000 0.447607
0.572534 1.000000 0.443190
0.702506 1.000000 0.438800
0.832548 1.000000 0.434439
0.962661 1.000000 0.430107
1.000000 1.000000 0.425802
0.000000 0.009159 0.716016
0.082427 0.008720 0.710763
0.210310 0.008324 0.705538
0.338264 0.007971 0.700342
0.466289 0.007659 0.695174
0.594384 0.007391 0.690034
0.722550 0.007164 0.684922
0.850787 0.006980 0.679839
0.979094 0.006838 0.674783
0.000000 0.132852 0.698457
0.092408 0.132557 0.693299
0.220529 0.132303 0.688169
0.348720 0.132092 0.683068
0.476982 0.131923 0.677995
0.605315 0.131797 0.672950
0.733719 0.131713 0.667933
0.862193 0.131672 0.662945
0.990737 0.131672 0.657985
0.000000 0.257026 0.681218
0.103188 0.256873 0.676155
0.231546 0.256762 0.671120
0.359975 0.256693 0.666114
0.488475 0.256667 0.661136
0.617045 0.256683 0.656186
0.745686 0.256742 0.651265
0.874398 0.256843 0.646371
1.000000 0.256986 0.641506
0.000000 0.381679 0.664298
0.114767 0.381668 0.659331
0.243363 0.381700 0.654391
0.372029 0.381774 0.649480
0.500767 0.381890 0.644597
0.629575 0.382049 0.639742
0.758453 0.382250 0.634915
0.887403 0.382494 0.630117
1.000000 0.382779 0.625347
0.000000 0.506811 0.647699
0.127145 0.506943 0.642826
0.255979 0.507117 0.637981
0.384883 0.507334 0.633165
0.513858 0.507593 0.628377
0.642903 0.507894 0.623617
0.772020 0.508238 0.618886
0.901206 0.508624 0.614183
1.000000 0.509052 0.609507
0.011322 0.632423 0.631419
0.140322 0.632697 0.626641
0.269394 0.633014 0.621891
0.398536 0.633373 0.617170
0.527748 0.633775 0.612477
0.657031 0.634219 0.607812
0.786385 0.634705 0.603176
0.915809 0.635234 0.598568
1.000000 0.635805 0.593988
0.025061 0.758515 0.615458
0.154299 0.758932 0.610776
0.283608 0.759391 0.606121
0.412988 0.759893 0.601495
0.542438 0.760437 0.596897
0.671958 0.761023 0.592327
0.801550 0.761652 0.587786
0.931212 0.762323 0.583273
1.000000 0.763037 0.578788
0.039600 0.885086 0.599818
0.169075 0.885645 0.595230
0.298622 0.886247 0.590671
0.428239 0.886891 0.586140
0.557926 0.887578 0.581637
0.687685 0.888307 0.577162
0.817514 0.889078 0.572715
0.947413 0.889892 0.568297
1.000000 0.890748 0.563907
0.054937 1.000000 0.584497
0.184651 1.000000 0.580004
0.314435 1.000000 0.575540
0.444289 1.000000 0.571104
0.574214 1.000000 0.566696
0.704210 1.000000 0.562316
0.834277 1.000000 0.557965
0.964414 1.000000 0.553642
1.000000 1.000000 0.549347
0.000000 0.009005 0.839229
0.083398 0.008581 0.833985
0.211306 0.008199 0.828770
0.339284 0.007860 0.823583
0.467332 0.007563 0.818425
0.595451 0.007309 0.813295
0.723641 0.007097 0.808192
0.851902 0.006927 0.803119
0.980233 0.006800 0.798073
0.000000 0.132747 0.821702
0.093460 0.132466 0.816554
0.221605 0.132227 0.811434
0.349820 0.132030 0.806342
0.478106 0.131876 0.801279
0.606463 0.131764 0.796243
0.734890 0.131694 0.791236
0.863388 0.131667 0.786257
0.991957 0.131682 0.781307
0.000000 0.256969 0.804495
0.104320 0.256830 0.799442
0.232703 0.256734 0.794417
0.361156 0.256679 0.789420
0.489680 0.256668 0.784452
0.618274 0.256698 0.779512
0.746939 0.256771 0.774600
0.875675 0.256887 0.769716
1.000000 0.257044 0.764860
0.000000 0.381670 0.787608
0.115980 0.381674 0.782650
0.244600 0.381720 0.777720
0.373291 0.381808 0.772818
0.502052 0.381939 0.767945
0.630884 0.382112 0.763100
0.759787 0.382328 0.758283
0.888760 0.382586 0.753494
1.000000 0.382886 0.748733
0.000000 0.506851 0.771041
0.128439 0.506997 0.766178
0.257297 0.507186 0.761343
0.386225 0.507417 0.756536
0.515224 0.507690 0.751758
0.644293 0.508006 0.747007
0.773433 0.508364 0.742285
0.902644 0.508765 0.737592
1.000000 0.509207 0.732926
0.012673 0.632512 0.754793
0.141697 0.632800 0.750025
0.270792 0.633131 0.745285
0.399958 0.633505 0.740573
0.529195 0.633921 0.735890
0.658502 0.634379 0.731235
0.787880 0.634880 0.726608
0.917328 0.635423 0.722009
1.000000 0.636008 0.717439
0.026492 0.758651 0.738865
0.155755 0.759083 0.734192
0.285087 0.759556 0.729547
0.414491 0.760073 0.724930
0.543965 0.760631 0.720342
0.673510 0.761232 0.715782
0.803125 0.761875 0.711250
0.932811 0.762561 0.706746
1.000000 0.763288 0.702271
0.041112 0.885271 0.723257
0.170611 0.885845 0.718679
0.300182 0.886461 0.714129
0.429823 0.887120 0.709607
0.559534 0.887821 0.705114
0.689317 0.888564 0.700649
0.819170 0.889350 0.696212
0.949093 0.890178 0.691803
1.000000 0.891048 0.687423
0.056530 1.000000 0.707968
0.186267 1.000000 0.703485
0.316075 1.000000 0.699030
0.445954 1.000000 0.694604
0.575903 1.000000 0.690205
0.705923 1.000000 0.685835
0.836013 1.000000 0.681493
0.966175 1.000000 0.677180
1.000000 1.000000 0.672895
0.000000 0.008856 0.962445
0.084378 0.008447 0.957211
0.212309 0.008079 0.952006
0.340311 0.007755 0.946828
0.468384 0.007472 0.941679
0.596527 0.007232 0.936559
0.724741 0.007034 0.931466
0.853025 0.006879 0.926402
0.981380 0.006766 0.921366
0.000000 0.132647 0.944951
0.094520 0.132380 0.939812
0.222689 0.132155 0.934701
0.350928 0.131973 0.929619
0.479238 0.131833 0.924565
0.607619 0.131735 0.919540
0.736070 0.131680 0.914542
0.864592 0.131667 0.909573
0.993185 0.131697 0.904632
0.000000 0.256917 0.927776
0.105461 0.256793 0.922732
0.233867 0.256710 0.917717
0.362345 0.256671 0.912730
0.490892 0.256673 0.907771
0.619511 0.256718 0.902840
0.748200 0.256806 0.897938
0.876959 0.256936 0.893064
1.000000 0.257108 0.888218
0.000000 0.381667 0.910921
0.117201 0.381685 0.905973
0.245845 0.381745 0.901052
0.374560 0.381848 0.896160
0.503345 0.381993 0.891296
0.632201 0.382181 0.886461
0.761128 0.382411 0.881653
0.890125 0.382683 0.876874
1.000000 0.382998 0.872123
0.000930 0.506896 0.894386
0.129741 0.507057 0.889532
0.258623 0.507260 0.884707
0.387575 0.507505 0.879910
0.516598 0.507793 0.875141
0.645691 0.508123 0.870401
0.774856 0.508495 0.865688
0.904090 0.508910 0.861004
1.000000 0.509367 0.856348
0.014031 0.632605 0.878171
0.143080 0.632908 0.873412
0.272199 0.633254 0.868682
0.401389 0.633641 0.863980
0.530650 0.634072 0.859306
0.659981 0.634544 0.854660
0.789382 0.635059 0.850043
0.918855 0.635617 0.845454
1.000000 0.636217 0.840893
0.027932 0.758793 0.862275
0.157218 0.759239 0.857611
0.286575 0.759727 0.852976
0.416002 0.760257 0.848369
0.545500 0.760830 0.843790
0.675069 0.761445 0.839240
0.804708 0.762103 0.834717
0.934418 0.762803 0.830223
1.000000 0.763545 0.825758
0.042632 0.885461 0.846699
0.172156 0.886049 0.842130
0.301750 0.886680 0.837590
0.431415 0.887353 0.833078
0.561151 0.888068 0.828594
0.690957 0.888826 0.824139
0.820834 0.889626 0.819711
0.950781 0.890469 0.815312
1.000000 0.891354 0.810942
0.058131 1.000000 0.831442
0.187892 1.000000 0.826969
0.317724 1.000000 0.822524
0.447627 1.000000 0.818107
0.577600 1.000000 0.813718
0.707644 1.000000 0.809358
0.837758 1.000000 0.805025
0.967943 1.000000 0.800721
1.000000 1.000000 0.796446
0.000000 0.008712 1.000000
0.085365 0.008317 1.000000
0.213321 0.007964 1.000000
0.341347 0.007654 1.000000
0.469443 0.007386 1.000000
0.597610 0.007160 1.000000
0.725848 0.006977 1.000000
0.854157 0.006836 1.000000
0.982536 0.006737 1.000000
0.000000 0.132551 1.000000
0.095588 0.132299 1.000000
0.223781 0.132089 1.000000
0.352044 0.131921 1.000000
0.480379 0.131795 1.000000
0.608783 0.131712 1.000000
0.737259 0.131671 1.000000
0.865805 0.131673 1.000000
0.994421 0.131717 1.000000
0.000000 0.256870 1.000000
0.106610 0.256760 1.000000
0.235040 0.256692 1.000000
0.363541 0.256667 1.000000
0.492113 0.256684 1.000000
0.620756 0.256743 1.000000
0.749468 0.256845 1.000000
0.878252 0.256989 1.000000
1.000000 0.257176 1.000000
0.000000 0.381668 1.000000
0.118431 0.381701 1.000000
0.247099 0.381775 1.000000
0.375838 0.381893 1.000000
0.504647 0.382052 1.000000
0.633527 0.382254 1.000000
0.762478 0.382499 1.000000
0.891499 0.382785 1.000000
1.000000 0.383114 0.995516
0.002216 0.506946 1.000000
0.131051 0.507121 1.000000
0.259957 0.507338 1.000000
0.388933 0.507598 1.000000
0.517980 0.507900 0.998528
0.647098 0.508245 0.993797
0.776286 0.508631 0.989094
0.905545 0.509061 0.984420
1.000000 0.509532 0.979774
0.015398 0.632703 1.000000
0.144471 0.633021 0.996802
0.273614 0.633381 0.992082
0.402828 0.633783 0.987389
0.532113 0.634228 0.982725
0.661468 0.634715 0.978089
0.790893 0.635244 0.973481
0.920390 0.635816 0.968902
1.000000 0.636430 0.964351
0.029380 0.758940 0.985688
0.158690 0.759400 0.981034
0.288071 0.759902 0.976408
0.417522 0.760447 0.971811
0.547044 0.761034 0.967242
0.676637 0.761664 0.962701
0.806300 0.762336 0.958188
0.936034 0.763050 0.953704
1.000000 0.763807 0.949247
0.044160 0.885656 0.970144
0.173708 0.886259 0.965585
0.303326 0.886904 0.961055
0.433015 0.887591 0.956552
0.562775 0.888321 0.952078
0.692605 0.889093 0.947632
0.822506 0.889908 0.943214
0.952478 0.890765 0.938825
1.000000 0.891664 0.934464
0.059740 1.000000 0.954920
0.189525 1.000000 0.950456
0.319381 1.000000 0.946020
0.449308 1.000000 0.941613
0.579305 1.000000 0.937234
0.709373 1.000000 0.932883
0.839511 1.000000 0.928560
0.969720 1.000000 0.924266
1.000000 1.000000 0.920000
