fixtures/luts/teal-orange.cube
# Cool shadows, warm midtones
# Generated by scripts/make_luts.py — part of immich-addons, MIT licensed.
TITLE "teal-orange"
LUT_3D_SIZE 5
DOMAIN_MIN 0.0 0.0 0.0
DOMAIN_MAX 1.0 1.0 1.0
0.000000 0.010000 0.100000
0.205456 0.009022 0.089426
0.461195 0.008213 0.078966
0.717216 0.007574 0.068618
0.973520 0.007104 0.058384
0.000000 0.257383 0.064879
0.225885 0.256975 0.054686
0.482574 0.256736 0.044606
0.739546 0.256667 0.034638
0.996800 0.256768 0.024784
0.000000 0.506684 0.031038
0.249511 0.506846 0.021224
0.507150 0.507178 0.011524
0.765072 0.507679 0.001937
1.000000 0.508350 0.000000
0.018026 0.757904 0.000000
0.276333 0.758636 0.000000
0.534923 0.759538 0.000000
0.793795 0.760609 0.000000
1.000000 0.761850 0.000000
0.047096 1.000000 0.000000
0.306353 1.000000 0.000000
0.565893 1.000000 0.000000
0.825716 1.000000 0.000000
1.000000 1.000000 0.000000
0.000000 0.009649 0.346397
0.207373 0.008728 0.335861
0.463208 0.007977 0.325439
0.719325 0.007395 0.315130
0.975725 0.006983 0.304934
0.000000 0.257225 0.311405
0.228125 0.256875 0.301250
0.484910 0.256694 0.291208
0.741977 0.256682 0.281279
0.999327 0.256840 0.271463
0.000000 0.506720 0.277692
0.252073 0.506940 0.267917
0.509809 0.507329 0.258256
0.767827 0.507888 0.248707
1.000000 0.508616 0.239271
0.020816 0.758133 0.245258
0.279219 0.758923 0.235864
0.537905 0.759883 0.226582
0.796873 0.761012 0.217413
1.000000 0.762310 0.208357
0.050208 1.000000 0.214103
0.309561 1.000000 0.205088
0.569197 1.000000 0.196187
0.829116 1.000000 0.187398
1.000000 1.000000 0.178723
0.000000 0.009317 0.592806
0.209323 0.008454 0.582309
0.465254 0.007760 0.571926
0.721467 0.007236 0.561655
0.977963 0.006882 0.551497
0.000000 0.257087 0.557944
0.230398 0.256795 0.547827
0.487278 0.256671 0.537823
0.744442 0.256717 0.527933
1.000000 0.256933 0.518155
0.000000 0.506776 0.524360
0.254669 0.507053 0.514623
0.512500 0.507500 0.505000
0.770614 0.508116 0.495489
1.000000 0.508902 0.486092
0.023638 0.758383 0.492055
0.282137 0.759230 0.482699
0.540918 0.760247 0.473455
0.799983 0.761434 0.464325
1.000000 0.762789 0.455308
0.053353 1.000000 0.461029
0.312802 1.000000 0.452053
0.572534 1.000000 0.443190
0.832548 1.000000 0.434439
1.000000 1.000000 0.425802
0.000000 0.009005 0.839229
0.211306 0.008199 0.828770
0.467332 0.007563 0.818425
0.723641 0.007097 0.808192
0.980233 0.006800 0.798073
0.000000 0.256969 0.804495
0.232703 0.256734 0.794417
0.489680 0.256668 0.784452
0.746939 0.256771 0.774600
1.000000 0.257044 0.764860
0.000000 0.506851 0.771041
0.257297 0.507186 0.761343
0.515224 0.507690 0.751758
0.773433 0.508364 0.742285
1.000000 0.509207 0.732926
0.026492 0.758651 0.738865
0.285087 0.759556 0.729547
0.543965 0.760631 0.720342
0.803125 0.761875 0.711250
1.000000 0.763288 0.702271
0.056530 1.000000 0.707968
0.316075 1.000000 0.699030
0.575903 1.000000 0.690205
0.836013 1.000000 0.681493
1.000000 1.000000 0.672895
0.000000 0.008712 1.000000
0.213321 0.007964 1.000000
0.469443 0.007386 1.000000
0.725848 0.006977 1.000000
0.982536 0.006737 1.000000
0.000000 0.256870 1.000000
0.235040 0.256692 1.000000
0.492113 0.256684 1.000000
0.749468 0.256845 1.000000
1.000000 0.257176 1.000000
0.002216 0.506946 1.000000
0.259957 0.507338 1.000000
0.517980 0.507900 0.998528
0.776286 0.508631 0.989094
1.000000 0.509532 0.979774
0.029380 0.758940 0.985688
0.288071 0.759902 0.976408
0.547044 0.761034 0.967242
0.806300 0.762336 0.958188
1.000000 0.763807 0.949247
0.059740 1.000000 0.954920
0.319381 1.000000 0.946020
0.579305 1.000000 0.937234
0.839511 1.000000 0.928560
1.000000 1.000000 0.920000
