fixtures/luts/teal-orange.cube
# Cool shadows, warm midtones
# Generated by scripts/make_luts.py — part of immich-addons, MIT licensed.
TITLE "teal-orange"
LUT_3D_SIZE 17
DOMAIN_MIN 0.0 0.0 0.0
DOMAIN_MAX 1.0 1.0 1.0
0.000000 0.010000 0.100000
0.013838 0.009740 0.097346
0.077693 0.009490 0.094699
0.141566 0.009250 0.092059
0.205456 0.009022 0.089426
0.269364 0.008804 0.086801
0.333290 0.008596 0.084182
0.397234 0.008399 0.081571
0.461195 0.008213 0.078966
0.525174 0.008037 0.076369
0.589170 0.007872 0.073778
0.653184 0.007718 0.071195
0.717216 0.007574 0.068618
0.781266 0.007440 0.066049
0.845333 0.007318 0.063487
0.909418 0.007206 0.060932
0.973520 0.007104 0.058384
0.000000 0.071666 0.091100
0.018467 0.071441 0.088470
0.082382 0.071227 0.085847
0.146314 0.071023 0.083231
0.210264 0.070830 0.080621
0.274231 0.070648 0.078020
0.338217 0.070476 0.075425
0.402219 0.070315 0.072837
0.466240 0.070164 0.070256
0.530278 0.070024 0.067682
0.594334 0.069894 0.065116
0.658408 0.069776 0.062556
0.722499 0.069667 0.060004
0.786608 0.069570 0.057458
0.850734 0.069483 0.054920
0.914878 0.069406 0.052388
0.979040 0.069340 0.049864
0.000000 0.133452 0.082280
0.023296 0.133263 0.079673
0.087270 0.133084 0.077074
0.151262 0.132916 0.074482
0.215271 0.132759 0.071896
0.279298 0.132612 0.069318
0.343343 0.132476 0.066747
0.407405 0.132350 0.064183
0.471485 0.132235 0.061626
0.535583 0.132131 0.059076
0.599698 0.132037 0.056533
0.663831 0.131953 0.053997
0.727981 0.131881 0.051469
0.792150 0.131819 0.048947
0.856335 0.131767 0.046432
0.920539 0.131726 0.043925
0.984760 0.131696 0.041424
0.000000 0.195357 0.073540
0.028325 0.195204 0.070957
0.092358 0.195061 0.068381
0.156409 0.194929 0.065813
0.220478 0.194807 0.063251
0.284565 0.194696 0.060697
0.348669 0.194595 0.058149
0.412790 0.194505 0.055609
0.476930 0.194426 0.053076
0.541087 0.194357 0.050550
0.605261 0.194299 0.048031
0.669454 0.194251 0.045518
0.733664 0.194214 0.043013
0.797891 0.194188 0.040515
0.862137 0.194172 0.038025
0.926399 0.194167 0.035541
0.990680 0.194172 0.033064
0.000000 0.257383 0.064879
0.033554 0.257265 0.062320
0.097646 0.257158 0.059769
0.161757 0.257061 0.057224
0.225885 0.256975 0.054686
0.290031 0.256899 0.052155
0.354194 0.256835 0.049632
0.418375 0.256780 0.047115
0.482574 0.256736 0.044606
0.546791 0.256703 0.042103
0.611025 0.256681 0.039608
0.675276 0.256669 0.037120
0.739546 0.256667 0.034638
0.803833 0.256677 0.032164
0.868137 0.256696 0.029697
0.932460 0.256727 0.027237
0.996800 0.256768 0.024784
0.000000 0.319529 0.056299
0.038982 0.319446 0.053764
0.103134 0.319375 0.051236
0.167304 0.319314 0.048715
0.231492 0.319263 0.046201
0.295697 0.319223 0.043694
0.359920 0.319194 0.041194
0.424160 0.319175 0.038701
0.488418 0.319167 0.036215
0.552694 0.319170 0.033737
0.616988 0.319183 0.031265
0.681299 0.319206 0.028801
0.745628 0.319241 0.026343
0.809974 0.319285 0.023893
0.874338 0.319341 0.021449
0.938720 0.319407 0.019013
1.000000 0.319483 0.016584
0.000000 0.381794 0.047799
0.044611 0.381747 0.045287
0.108822 0.381711 0.042783
0.173051 0.381686 0.040286
0.237298 0.381671 0.037795
0.301563 0.381667 0.035312
0.365845 0.381673 0.032836
0.430145 0.381690 0.030367
0.494463 0.381718 0.027905
0.558798 0.381756 0.025450
0.623151 0.381804 0.023002
0.687521 0.381864 0.020561
0.751909 0.381934 0.018128
0.816315 0.382014 0.015701
0.880739 0.382105 0.013281
0.945180 0.382207 0.010869
1.000000 0.382319 0.008463
0.000000 0.444179 0.039378
0.050439 0.444168 0.036890
0.114710 0.444168 0.034410
0.178998 0.444178 0.031936
0.243305 0.444199 0.029470
0.307629 0.444230 0.027010
0.371970 0.444272 0.024558
0.436329 0.444325 0.022113
0.500706 0.444388 0.019675
0.565101 0.444462 0.017243
0.629513 0.444546 0.014819
0.693943 0.444641 0.012402
0.758391 0.444746 0.009992
0.822856 0.444863 0.007589
0.887339 0.444989 0.005194
0.951839 0.445127 0.002805
1.000000 0.445275 0.000423
0.000000 0.506684 0.031038
0.056467 0.506709 0.028574
0.120797 0.506744 0.026117
0.185145 0.506790 0.023667
0.249511 0.506846 0.021224
0.313894 0.506913 0.018789
0.378295 0.506991 0.016360
0.442714 0.507079 0.013939
0.507150 0.507178 0.011524
0.571604 0.507287 0.009117
0.636076 0.507407 0.006716
0.700565 0.507538 0.004323
0.765072 0.507679 0.001937
0.829597 0.507831 0.000000
0.894139 0.507993 0.000000
0.958699 0.508166 0.000000
1.000000 0.508350 0.000000
0.000000 0.569309 0.022777
0.062694 0.569370 0.020337
0.127084 0.569441 0.017904
0.191492 0.569522 0.015478
0.255917 0.569614 0.013059
0.320359 0.569717 0.010647
0.384820 0.569830 0.008242
0.449298 0.569954 0.005844
0.513794 0.570088 0.003453
0.578307 0.570233 0.001070
0.642838 0.570389 0.000000
0.707387 0.570555 0.000000
0.771953 0.570732 0.000000
0.836537 0.570919 0.000000
0.901139 0.571117 0.000000
0.965758 0.571326 0.000000
1.000000 0.571545 0.000000
0.004690 0.632054 0.014596
0.069122 0.632150 0.012180
0.133571 0.632257 0.009770
0.198038 0.632374 0.007368
0.262523 0.632502 0.004973
0.327025 0.632640 0.002585
0.391544 0.632789 0.000204
0.456082 0.632948 0.000000
0.520637 0.633118 0.000000
0.585210 0.633299 0.000000
0.649800 0.633490 0.000000
0.714408 0.633692 0.000000
0.779034 0.633904 0.000000
0.843677 0.634127 0.000000
0.908339 0.634361 0.000000
0.973017 0.634605 0.000000
1.000000 0.634860 0.000000
0.011258 0.694919 0.006495
0.075749 0.695051 0.004103
0.140258 0.695193 0.001717
0.204784 0.695346 0.000000
0.269328 0.695509 0.000000
0.333890 0.695683 0.000000
0.398469 0.695867 0.000000
0.463066 0.696062 0.000000
0.527680 0.696268 0.000000
0.592312 0.696484 0.000000
0.656962 0.696711 0.000000
0.721630 0.696949 0.000000
0.786315 0.697197 0.000000
0.851018 0.697456 0.000000
0.915738 0.697725 0.000000
0.980476 0.698005 0.000000
1.000000 0.698295 0.000000
0.018026 0.757904 0.000000
0.082577 0.758071 0.000000
0.147145 0.758249 0.000000
0.211730 0.758437 0.000000
0.276333 0.758636 0.000000
0.340954 0.758846 0.000000
0.405593 0.759066 0.000000
0.470249 0.759297 0.000000
0.534923 0.759538 0.000000
0.599615 0.759790 0.000000
0.664324 0.760052 0.000000
0.729051 0.760325 0.000000
0.793795 0.760609 0.000000
0.858558 0.760904 0.000000
0.923337 0.761208 0.000000
0.988135 0.761524 0.000000
1.000000 0.761850 0.000000
0.024994 0.821008 0.000000
0.089604 0.821211 0.000000
0.154231 0.821425 0.000000
0.218876 0.821649 0.000000
0.283539 0.821883 0.000000
0.348219 0.822128 0.000000
0.412917 0.822384 0.000000
0.477633 0.822651 0.000000
0.542366 0.822928 0.000000
0.607117 0.823215 0.000000
0.671886 0.823513 0.000000
0.736672 0.823822 0.000000
0.801476 0.824141 0.000000
0.866297 0.824471 0.000000
0.931137 0.824812 0.000000
0.995993 0.825163 0.000000
1.000000 0.825525 0.000000
0.032161 0.884233 0.000000
0.096830 0.884471 0.000000
0.161517 0.884720 0.000000
0.226222 0.884980 0.000000
0.290944 0.885250 0.000000
0.355683 0.885531 0.000000
0.420441 0.885822 0.000000
0.485216 0.886124 0.000000
0.550009 0.886437 0.000000
0.614819 0.886760 0.000000
0.679647 0.887094 0.000000
0.744493 0.887439 0.000000
0.809356 0.887794 0.000000
0.874237 0.888159 0.000000
0.939135 0.888535 0.000000
1.000000 0.888922 0.000000
1.000000 0.889319 0.000000
0.039529 0.947577 0.000000
0.104257 0.947851 0.000000
0.169003 0.948136 0.000000
0.233767 0.948431 0.000000
0.298548 0.948737 0.000000
0.363348 0.949054 0.000000
0.428164 0.949381 0.000000
0.492999 0.949718 0.000000
0.557851 0.950067 0.000000
0.622721 0.950425 0.000000
0.687608 0.950795 0.000000
0.752513 0.951175 0.000000
0.817436 0.951566 0.000000
0.882376 0.951967 0.000000
0.947334 0.952379 0.000000
1.000000 0.952801 0.000000
1.000000 0.953234 0.000000
0.047096 1.000000 0.000000
0.111883 1.000000 0.000000
0.176689 1.000000 0.000000
0.241512 1.000000 0.000000
0.306353 1.000000 0.000000
0.371212 1.000000 0.000000
0.436088 1.000000 0.000000
0.500982 1.000000 0.000000
0.565893 1.000000 0.000000
0.630822 1.000000 0.000000
0.695769 1.000000 0.000000
0.760734 1.000000 0.000000
0.825716 1.000000 0.000000
0.890715 1.000000 0.000000
0.955733 1.000000 0.000000
1.000000 1.000000 0.000000
1.000000 1.000000 0.000000
0.000000 0.009910 0.161598
0.014296 0.009654 0.158946
0.078157 0.009407 0.156302
0.142036 0.009172 0.153664
0.205932 0.008946 0.151034
0.269847 0.008732 0.148411
0.333779 0.008528 0.145794
0.397728 0.008335 0.143185
0.461695 0.008152 0.140583
0.525680 0.007980 0.137988
0.589683 0.007819 0.135400
0.653703 0.007668 0.132819
0.717740 0.007527 0.130245
0.781796 0.007398 0.127678
0.845869 0.007278 0.125119
0.909960 0.007170 0.122566
0.974068 0.007072 0.120020
0.000000 0.071588 0.152706
0.018945 0.071367 0.150078
0.082866 0.071157 0.147457
0.146804 0.070957 0.144844
0.210760 0.070767 0.142237
0.274734 0.070588 0.139637
0.338725 0.070420 0.137045
0.402734 0.070262 0.134460
0.466760 0.070115 0.131881
0.530805 0.069979 0.129310
0.594867 0.069853 0.126746
0.658946 0.069738 0.124188
0.723043 0.069633 0.121638
0.787158 0.069539 0.119095
0.851291 0.069455 0.116559
0.915441 0.069382 0.114030
0.979609 0.069320 0.111508
0.000000 0.133386 0.143894
0.023795 0.133201 0.141290
0.087775 0.133026 0.138693
0.151772 0.132861 0.136103
0.215788 0.132708 0.133520
0.279821 0.132564 0.130944
0.343871 0.132432 0.128375
0.407940 0.132310 0.125814
0.472026 0.132198 0.123259
0.536129 0.132097 0.120712
0.600250 0.132007 0.118171
0.664389 0.131928 0.115638
0.728546 0.131859 0.113111
0.792720 0.131800 0.110592
0.856912 0.131752 0.108080
0.921122 0.131715 0.105575
0.985349 0.131688 0.103076
0.000000 0.195304 0.135162
0.028844 0.195154 0.132581
0.092883 0.195015 0.130008
0.156940 0.194886 0.127442
0.221015 0.194768 0.124883
0.285107 0.194660 0.122331
0.349217 0.194563 0.119786
0.413345 0.194477 0.117248
0.477490 0.194401 0.114717
0.541653 0.194336 0.112193
0.605834 0.194281 0.109677
0.670032 0.194237 0.107167
0.734248 0.194204 0.104664
0.798482 0.194181 0.102169
0.862733 0.194169 0.099680
0.927002 0.194167 0.097199
0.991289 0.194176 0.094725
0.000000 0.257342 0.126510
0.034093 0.257228 0.123953
0.098191 0.257124 0.121404
0.162308 0.257031 0.118861
0.226442 0.256948 0.116326
0.290594 0.256876 0.113798
0.354763 0.256815 0.111276
0.418950 0.256764 0.108762
0.483155 0.256724 0.106255
0.547377 0.256694 0.103755
0.611617 0.256675 0.101262
0.675875 0.256667 0.098776
0.740151 0.256669 0.096297
0.804444 0.256682 0.093825
0.868754 0.256706 0.091361
0.933083 0.256740 0.088903
0.997429 0.256784 0.086452
0.000000 0.319499 0.117937
0.039541 0.319421 0.115405
0.103699 0.319353 0.112879
0.167875 0.319295 0.110360
0.232069 0.319248 0.107849
0.296280 0.319212 0.105344
0.360509 0.319186 0.102847
0.424755 0.319171 0.100356
0.489019 0.319167 0.097873
0.553301 0.319173 0.095397
0.617601 0.319189 0.092927
0.681918 0.319217 0.090465
0.746253 0.319255 0.088010
0.810605 0.319303 0.085562
0.874975 0.319362 0.083121
0.939363 0.319432 0.080687
1.000000 0.319512 0.078260
0.000000 0.381777 0.109445
0.045190 0.381734 0.106936
0.109407 0.381701 0.104434
0.173643 0.381680 0.101939
0.237896 0.381668 0.099451
0.302166 0.381668 0.096970
0.366454 0.381678 0.094497
0.430760 0.381698 0.092030
0.495084 0.381729 0.089571
0.559425 0.381771 0.087118
0.623784 0.381823 0.084673
0.688160 0.381886 0.082234
0.752554 0.381960 0.079803
0.816966 0.382044 0.077379
0.881396 0.382138 0.074961
0.945843 0.382244 0.072551
1.000000 0.382360 0.070148
0.000000 0.444174 0.101033
0.051038 0.444167 0.098547
0.115315 0.444170 0.096069
0.179610 0.444184 0.093598
0.243922 0.444208 0.091134
0.308252 0.444243 0.088677
0.372600 0.444289 0.086227
0.436965 0.444345 0.083784
0.501348 0.444412 0.081348
0.565748 0.444489 0.078919
0.630167 0.444577 0.076498
0.694603 0.444676 0.074083
0.759056 0.444785 0.071675
0.823527 0.444904 0.069275
0.888016 0.445035 0.066881
0.952523 0.445176 0.064495
1.000000 0.445327 0.062116
0.000000 0.506692 0.092700
0.057086 0.506720 0.090239
0.121423 0.506759 0.087784
0.185777 0.506808 0.085337
0.250148 0.506868 0.082896
0.314538 0.506939 0.080463
0.378945 0.507020 0.078037
0.443369 0.507112 0.075618
0.507812 0.507214 0.073206
0.572272 0.507327 0.070801
0.636749 0.507451 0.068403
0.701245 0.507585 0.066012
0.765758 0.507730 0.063628
0.830288 0.507885 0.061251
0.894836 0.508051 0.058882
0.959402 0.508227 0.056519
1.000000 0.508415 0.054163
0.000000 0.569329 0.084447
0.063334 0.569393 0.082010
0.127730 0.569467 0.079579
0.192143 0.569552 0.077155
0.256575 0.569648 0.074739
0.321023 0.569754 0.072329
0.385490 0.569871 0.069927
0.449974 0.569998 0.067532
0.514475 0.570136 0.065143
0.578995 0.570285 0.062762
0.643532 0.570444 0.060388
0.708087 0.570614 0.058021
0.772659 0.570794 0.055661
0.837249 0.570985 0.053308
0.901857 0.571187 0.050962
0.966482 0.571399 0.048623
1.000000 0.571622 0.046291
0.005344 0.632086 0.076275
0.069782 0.632185 0.073861
0.134237 0.632295 0.071454
0.198710 0.632416 0.069054
0.263200 0.632547 0.066661
0.327709 0.632689 0.064275
0.392234 0.632842 0.061897
0.456778 0.633005 0.059525
0.521339 0.633178 0.057161
0.585918 0.633363 0.054803
0.650514 0.633558 0.052453
0.715128 0.633763 0.050109
0.779760 0.633979 0.047773
0.844409 0.634206 0.045444
0.909076 0.634443 0.043122
0.973761 0.634691 0.040806
1.000000 0.634949 0.038498
0.011933 0.694963 0.068182
0.076430 0.695098 0.065792
0.140944 0.695243 0.063409
0.205476 0.695400 0.061033
0.270026 0.695567 0.058663
0.334594 0.695744 0.056302
0.399179 0.695932 0.053947
0.463782 0.696131 0.051599
0.528402 0.696340 0.049258
0.593040 0.696560 0.046924
0.657696 0.696791 0.044598
0.722370 0.697032 0.042278
0.787061 0.697284 0.039965
0.851770 0.697546 0.037660
0.916496 0.697819 0.035361
0.981240 0.698102 0.033070
1.000000 0.698396 0.030786
0.018721 0.757959 0.060169
0.083277 0.758130 0.057803
0.147851 0.758312 0.055443
0.212442 0.758503 0.053091
0.277052 0.758706 0.050746
0.341679 0.758919 0.048407
0.406323 0.759143 0.046076
0.470986 0.759377 0.043752
0.535665 0.759622 0.041435
0.600363 0.759878 0.039125
0.665078 0.760144 0.036822
0.729811 0.760421 0.034526
0.794562 0.760708 0.032238
0.859330 0.761006 0.029956
0.924116 0.761314 0.027681
0.988919 0.761633 0.025414
1.000000 0.761963 0.023153
0.025708 0.821076 0.052236
0.090324 0.821282 0.049894
0.154957 0.821499 0.047558
0.219608 0.821727 0.045229
0.284277 0.821965 0.042908
0.348963 0.822214 0.040593
0.413667 0.822473 0.038286
0.478389 0.822743 0.035986
0.543128 0.823024 0.033692
0.607885 0.823315 0.031406
0.672660 0.823617 0.029127
0.737452 0.823929 0.026855
0.802262 0.824252 0.024590
0.867090 0.824586 0.022332
0.931935 0.824930 0.020081
0.996798 0.825285 0.017837
1.000000 0.825650 0.015600
0.032896 0.884313 0.044383
0.097571 0.884555 0.042064
0.162264 0.884807 0.039753
0.226974 0.885071 0.037448
0.291702 0.885344 0.035150
0.356448 0.885629 0.032859
0.421211 0.885924 0.030576
0.485992 0.886229 0.028299
0.550791 0.886546 0.026029
0.615608 0.886873 0.023767
0.680442 0.887210 0.021512
0.745293 0.887558 0.019263
0.810162 0.887916 0.017022
0.875049 0.888286 0.014788
0.939954 0.888665 0.012561
1.000000 0.889056 0.010341
1.000000 0.889457 0.008128
0.040283 0.947669 0.036610
0.105018 0.947947 0.034315
0.169770 0.948235 0.032027
0.234540 0.948534 0.029746
0.299327 0.948843 0.027472
0.364132 0.949163 0.025205
0.428955 0.949494 0.022945
0.493796 0.949835 0.020692
0.558654 0.950187 0.018446
0.623529 0.950550 0.016208
0.688423 0.950923 0.013976
0.753334 0.951306 0.011752
0.818263 0.951701 0.009534
0.883209 0.952105 0.007324
0.948173 0.952521 0.005120
1.000000 0.952947 0.002924
1.000000 0.953383 0.000735
0.047871 1.000000 0.028917
0.112664 1.000000 0.026646
0.177476 1.000000 0.024381
0.242305 1.000000 0.022124
0.307152 1.000000 0.019874
0.372017 1.000000 0.017631
0.436899 1.000000 0.015395
0.501799 1.000000 0.013165
0.566716 1.000000 0.010943
0.631651 1.000000 0.008728
0.696604 1.000000 0.006521
0.761574 1.000000 0.004320
0.826563 1.000000 0.002126
0.891568 1.000000 0.000000
0.956592 1.000000 0.000000
1.000000 1.000000 0.000000
1.000000 1.000000 0.000000
0.000000 0.009822 0.223197
0.014756 0.009569 0.220547
0.078623 0.009326 0.217905
0.142508 0.009094 0.215270
0.206411 0.008872 0.212642
0.270331 0.008662 0.210021
0.334269 0.008461 0.207408
0.398224 0.008272 0.204801
0.462197 0.008092 0.202201
0.526188 0.007924 0.199608
0.590197 0.007766 0.197023
0.654223 0.007619 0.194444
0.718267 0.007482 0.191873
0.782328 0.007356 0.189308
0.846407 0.007240 0.186751
0.910504 0.007135 0.184201
0.974618 0.007041 0.181657
0.000000 0.071512 0.214313
0.019426 0.071294 0.211687
0.083352 0.071087 0.209069
0.147297 0.070891 0.206458
0.211259 0.070705 0.203853
0.275238 0.070530 0.201256
0.339235 0.070365 0.198666
0.403250 0.070211 0.196083
0.467283 0.070068 0.193507
0.531333 0.069935 0.190938
0.595401 0.069813 0.188376
0.659487 0.069701 0.185822
0.723590 0.069600 0.183274
0.787711 0.069509 0.180733
0.851849 0.069429 0.178200
0.916005 0.069360 0.175673
0.980179 0.069301 0.173154
0.000000 0.133322 0.205509
0.024295 0.133140 0.202907
0.088281 0.132969 0.200313
0.152285 0.132808 0.197725
0.216306 0.132658 0.195144
0.280345 0.132518 0.192571
0.344402 0.132389 0.190005
0.408476 0.132271 0.187445
0.472568 0.132163 0.184893
0.536678 0.132066 0.182348
0.600805 0.131979 0.179810
0.664950 0.131903 0.177279
0.729112 0.131837 0.174755
0.793293 0.131783 0.172238
0.857491 0.131738 0.169728
0.921706 0.131705 0.167225
0.985939 0.131682 0.164730
0.000000 0.195252 0.196785
0.029364 0.195106 0.194207
0.093410 0.194970 0.191636
0.157473 0.194845 0.189072
0.221554 0.194730 0.186515
0.285652 0.194626 0.183966
0.349768 0.194533 0.181423
0.413902 0.194450 0.178888
0.478053 0.194378 0.176359
0.542222 0.194316 0.173838
0.606409 0.194265 0.171324
0.670613 0.194225 0.168816
0.734835 0.194195 0.166316
0.799075 0.194176 0.163823
0.863332 0.194167 0.161337
0.927607 0.194169 0.158858
0.991900 0.194182 0.156386
0.000000 0.257302 0.188141
0.034634 0.257191 0.185586
0.098738 0.257091 0.183039
0.162861 0.257001 0.180499
0.227001 0.256923 0.177966
0.291159 0.256854 0.175440
0.355334 0.256796 0.172922
0.419527 0.256749 0.170410
0.483738 0.256713 0.167905
0.547966 0.256687 0.165408
0.612212 0.256671 0.162917
0.676476 0.256667 0.160433
0.740757 0.256672 0.157957
0.805057 0.256689 0.155488
0.869373 0.256716 0.153025
0.933708 0.256754 0.150570
0.998060 0.256802 0.148122
0.000000 0.319472 0.179576
0.040102 0.319396 0.177046
0.104267 0.319332 0.174523
0.168448 0.319278 0.172006
0.232648 0.319235 0.169497
0.296865 0.319202 0.166995
0.361100 0.319180 0.164500
0.425352 0.319168 0.162012
0.489623 0.319168 0.159531
0.553910 0.319177 0.157057
0.618216 0.319198 0.154590
0.682539 0.319228 0.152131
0.746880 0.319270 0.149678
0.811238 0.319322 0.147232
0.875614 0.319385 0.144794
0.940008 0.319458 0.142362
1.000000 0.319542 0.139938
0.000000 0.381761 0.171092
0.045771 0.381722 0.168585
0.109995 0.381693 0.166086
0.174236 0.381675 0.163593
0.238495 0.381667 0.161108
0.302771 0.381670 0.158630
0.367066 0.381683 0.156158
0.431378 0.381708 0.153694
0.495707 0.381742 0.151237
0.560054 0.381788 0.148787
0.624419 0.381843 0.146344
0.688802 0.381910 0.143908
0.753202 0.381987 0.141479
0.817620 0.382075 0.139057
0.882055 0.382173 0.136642
0.946508 0.382282 0.134234
1.000000 0.382401 0.131834
0.000000 0.444171 0.162688
0.051640 0.444167 0.160205
0.115923 0.444174 0.157729
0.180223 0.444191 0.155260
0.244542 0.444219 0.152799
0.308878 0.444258 0.150344
0.373231 0.444307 0.147896
0.437602 0.444366 0.145456
0.501991 0.444437 0.143023
0.566398 0.444518 0.140596
0.630822 0.444609 0.138177
0.695264 0.444711 0.135765
0.759724 0.444824 0.133359
0.824201 0.444947 0.130961
0.888696 0.445081 0.128570
0.953208 0.445226 0.126186
1.000000 0.445381 0.123809
0.000000 0.506700 0.154363
0.057708 0.506732 0.151904
0.122050 0.506774 0.149452
0.186410 0.506827 0.147007
0.250788 0.506891 0.144569
0.315183 0.506965 0.142138
0.379596 0.507050 0.139715
0.444027 0.507145 0.137298
0.508475 0.507251 0.134888
0.572941 0.507368 0.132486
0.637425 0.507495 0.130090
0.701926 0.507633 0.127702
0.766445 0.507781 0.125320
0.830982 0.507940 0.122946
0.895536 0.508110 0.120578
0.960108 0.508290 0.118218
1.000000 0.508481 0.115865
0.000000 0.569349 0.146119
0.063976 0.569417 0.143683
0.128378 0.569495 0.141255
0.192797 0.569583 0.138834
0.257234 0.569683 0.136420
0.321689 0.569792 0.134013
0.386162 0.569913 0.131613
0.450652 0.570044 0.129220
0.515159 0.570186 0.126834
0.579685 0.570338 0.124455
0.644228 0.570501 0.122083
0.708788 0.570674 0.119718
0.773367 0.570858 0.117361
0.837963 0.571053 0.115010
0.902576 0.571258 0.112667
0.967208 0.571474 0.110330
1.000000 0.571700 0.108001
0.006000 0.632118 0.137954
0.070444 0.632221 0.135543
0.134905 0.632335 0.133138
0.199384 0.632459 0.130741
0.263880 0.632594 0.128350
0.328395 0.632740 0.125967
0.392926 0.632896 0.123591
0.457476 0.633063 0.121221
0.522043 0.633240 0.118859
0.586628 0.633428 0.116504
0.651230 0.633626 0.114156
0.715850 0.633835 0.111815
0.780488 0.634055 0.109481
0.845143 0.634285 0.107154
0.909816 0.634526 0.104835
0.974507 0.634777 0.102522
1.000000 0.635039 0.100216
0.012609 0.695007 0.129870
0.077112 0.695146 0.127482
0.141632 0.695295 0.125101
0.206170 0.695455 0.122727
0.270726 0.695626 0.120361
0.335300 0.695807 0.118001
0.399891 0.695999 0.115648
0.464500 0.696201 0.113303
0.529126 0.696414 0.110965
0.593771 0.696637 0.108633
0.658432 0.696871 0.106309
0.723112 0.697116 0.103992
0.787809 0.697371 0.101682
0.852524 0.697637 0.099379
0.917256 0.697914 0.097083
0.982006 0.698201 0.094794
1.000000 0.698498 0.092512
0.019417 0.758016 0.121865
0.083979 0.758191 0.119501
0.148559 0.758376 0.117144
0.213157 0.758571 0.114794
0.277772 0.758777 0.112451
0.342405 0.758994 0.110115
0.407056 0.759221 0.107786
0.471724 0.759459 0.105465
0.536410 0.759708 0.103150
0.601113 0.759967 0.100842
0.665835 0.760237 0.098542
0.730573 0.760517 0.096248
0.795330 0.760808 0.093962
0.860104 0.761109 0.091683
0.924896 0.761422 0.089410
0.989705 0.761744 0.087145
1.000000 0.762078 0.084887
0.026425 0.821145 0.113940
0.091047 0.821355 0.111600
0.155686 0.821576 0.109266
0.220343 0.821807 0.106940
0.285018 0.822049 0.104621
0.349710 0.822301 0.102309
0.414420 0.822564 0.100004
0.479148 0.822838 0.097706
0.543893 0.823122 0.095415
0.608656 0.823417 0.093131
0.673436 0.823722 0.090855
0.738235 0.824038 0.088585
0.803051 0.824364 0.086322
0.867884 0.824702 0.084067
0.932735 0.825049 0.081818
0.997604 0.825408 0.079577
1.000000 0.825777 0.077342
0.033633 0.884394 0.106095
0.098314 0.884639 0.103778
0.163012 0.884895 0.101469
0.227729 0.885162 0.099167
0.292463 0.885440 0.096871
0.357215 0.885728 0.094583
0.421984 0.886026 0.092302
0.486771 0.886336 0.090027
0.551576 0.886655 0.087760
0.616398 0.886986 0.085500
0.681238 0.887327 0.083247
0.746096 0.887678 0.081001
0.810971 0.888041 0.078762
0.875864 0.888413 0.076531
0.940775 0.888797 0.074306
1.000000 0.889191 0.072088
1.000000 0.889595 0.069878
0.041040 0.947762 0.098330
0.105781 0.948043 0.096037
0.170539 0.948335 0.093752
0.235315 0.948638 0.091473
0.300108 0.948951 0.089201
0.364919 0.949275 0.086937
0.429748 0.949609 0.084679
0.494594 0.949954 0.082429
0.559459 0.950309 0.080185
0.624340 0.950675 0.077949
0.689240 0.951052 0.075720
0.754157 0.951439 0.073498
0.819091 0.951837 0.071283
0.884044 0.952245 0.069075
0.949014 0.952664 0.066874
1.000000 0.953094 0.064680
1.000000 0.953534 0.062493
0.048648 1.000000 0.090645
0.113447 1.000000 0.088376
0.178265 1.000000 0.086114
0.243100 1.000000 0.083859
0.307953 1.000000 0.081611
0.372824 1.000000 0.079370
0.437712 1.000000 0.077137
0.502618 1.000000 0.074910
0.567541 1.000000 0.072690
0.632482 1.000000 0.070478
0.697441 1.000000 0.068272
0.762417 1.000000 0.066074
0.827412 1.000000 0.063883
0.892423 1.000000 0.061698
0.957453 1.000000 0.059521
1.000000 1.000000 0.057351
1.000000 1.000000 0.055188
0.000000 0.009735 0.284796
0.015218 0.009485 0.282149
0.079092 0.009246 0.279510
0.142983 0.009018 0.276877
0.206891 0.008800 0.274251
0.270817 0.008592 0.271633
0.334761 0.008396 0.269021
0.398723 0.008210 0.266417
0.462702 0.008034 0.263820
0.526699 0.007869 0.261229
0.590713 0.007715 0.258646
0.654745 0.007571 0.256070
0.718795 0.007438 0.253501
0.782862 0.007315 0.250939
0.846948 0.007204 0.248384
