fixtures/luts/warm-film.cube
# Lifted shadows and warm highlights
# Generated by scripts/make_luts.py — part of immich-addons, MIT licensed.
TITLE "warm-film"
LUT_3D_SIZE 5
DOMAIN_MIN 0.0 0.0 0.0
DOMAIN_MAX 1.0 1.0 1.0
0.040000 0.040000 0.048000
0.308149 0.040000 0.048000
0.547369 0.040000 0.048000
0.776763 0.040000 0.048000
1.000000 0.040000 0.048000
0.040000 0.290192 0.048000
0.308149 0.290192 0.048000
0.547369 0.290192 0.048000
0.776763 0.290192 0.048000
1.000000 0.290192 0.048000
0.040000 0.530086 0.048000
0.308149 0.530086 0.048000
0.547369 0.530086 0.048000
0.776763 0.530086 0.048000
1.000000 0.530086 0.048000
0.040000 0.766241 0.048000
0.308149 0.766241 0.048000
0.547369 0.766241 0.048000
0.776763 0.766241 0.048000
1.000000 0.766241 0.048000
0.040000 1.000000 0.048000
0.308149 1.000000 0.048000
0.547369 1.000000 0.048000
0.776763 1.000000 0.048000
1.000000 1.000000 0.048000
0.040000 0.040000 0.268845
0.308149 0.040000 0.268845
0.547369 0.040000 0.268845
0.776763 0.040000 0.268845
1.000000 0.040000 0.268845
0.040000 0.290192 0.268845
0.308149 0.290192 0.268845
0.547369 0.290192 0.268845
0.776763 0.290192 0.268845
1.000000 0.290192 0.268845
0.040000 0.530086 0.268845
0.308149 0.530086 0.268845
0.547369 0.530086 0.268845
0.776763 0.530086 0.268845
1.000000 0.530086 0.268845
0.040000 0.766241 0.268845
0.308149 0.766241 0.268845
0.547369 0.766241 0.268845
0.776763 0.766241 0.268845
1.000000 0.766241 0.268845
0.040000 1.000000 0.268845
0.308149 1.000000 0.268845
0.547369 1.000000 0.268845
0.776763 1.000000 0.268845
1.000000 1.000000 0.268845
0.040000 0.040000 0.508447
0.308149 0.040000 0.508447
0.547369 0.040000 0.508447
0.776763 0.040000 0.508447
1.000000 0.040000 0.508447
0.040000 0.290192 0.508447
0.308149 0.290192 0.508447
0.547369 0.290192 0.508447
0.776763 0.290192 0.508447
1.000000 0.290192 0.508447
0.040000 0.530086 0.508447
0.308149 0.530086 0.508447
0.547369 0.530086 0.508447
0.776763 0.530086 0.508447
1.000000 0.530086 0.508447
0.040000 0.766241 0.508447
0.308149 0.766241 0.508447
0.547369 0.766241 0.508447
0.776763 0.766241 0.508447
1.000000 0.766241 0.508447
0.040000 1.000000 0.508447
0.308149 1.000000 0.508447
0.547369 1.000000 0.508447
0.776763 1.000000 0.508447
1.000000 1.000000 0.508447
0.040000 0.040000 0.755679
0.308149 0.040000 0.755679
0.547369 0.040000 0.755679
0.776763 0.040000 0.755679
1.000000 0.040000 0.755679
0.040000 0.290192 0.755679
0.308149 0.290192 0.755679
0.547369 0.290192 0.755679
0.776763 0.290192 0.755679
1.000000 0.290192 0.755679
0.040000 0.530086 0.755679
0.308149 0.530086 0.755679
0.547369 0.530086 0.755679
0.776763 0.530086 0.755679
1.000000 0.530086 0.755679
0.040000 0.766241 0.755679
0.308149 0.766241 0.755679
0.547369 0.766241 0.755679
0.776763 0.766241 0.755679
1.000000 0.766241 0.755679
0.040000 1.000000 0.755679
0.308149 1.000000 0.755679
0.547369 1.000000 0.755679
0.776763 1.000000 0.755679
1.000000 1.000000 0.755679
0.040000 0.040000 1.000000
0.308149 0.040000 1.000000
0.547369 0.040000 1.000000
0.776763 0.040000 1.000000
1.000000 0.040000 1.000000
0.040000 0.290192 1.000000
0.308149 0.290192 1.000000
0.547369 0.290192 1.000000
0.776763 0.290192 1.000000
1.000000 0.290192 1.000000
0.040000 0.530086 1.000000
0.308149 0.530086 1.000000
0.547369 0.530086 1.000000
0.776763 0.530086 1.000000
1.000000 0.530086 1.000000
0.040000 0.766241 1.000000
0.308149 0.766241 1.000000
0.547369 0.766241 1.000000
0.776763 0.766241 1.000000
1.000000 0.766241 1.000000
0.040000 1.000000 1.000000
0.308149 1.000000 1.000000
0.547369 1.000000 1.000000
0.776763 1.000000 1.000000
1.000000 1.000000 1.000000
