fixtures/luts/warm-film.cube
# Lifted shadows and warm highlights
# Generated by scripts/make_luts.py — part of immich-addons, MIT licensed.
TITLE "warm-film"
LUT_3D_SIZE 9
DOMAIN_MIN 0.0 0.0 0.0
DOMAIN_MAX 1.0 1.0 1.0
0.040000 0.040000 0.048000
0.181719 0.040000 0.048000
0.308149 0.040000 0.048000
0.429386 0.040000 0.048000
0.547369 0.040000 0.048000
0.662990 0.040000 0.048000
0.776763 0.040000 0.048000
0.889021 0.040000 0.048000
1.000000 0.040000 0.048000
0.040000 0.167724 0.048000
0.181719 0.167724 0.048000
0.308149 0.167724 0.048000
0.429386 0.167724 0.048000
0.547369 0.167724 0.048000
0.662990 0.167724 0.048000
0.776763 0.167724 0.048000
0.889021 0.167724 0.048000
1.000000 0.167724 0.048000
0.040000 0.290192 0.048000
0.181719 0.290192 0.048000
0.308149 0.290192 0.048000
0.429386 0.290192 0.048000
0.547369 0.290192 0.048000
0.662990 0.290192 0.048000
0.776763 0.290192 0.048000
0.889021 0.290192 0.048000
1.000000 0.290192 0.048000
0.040000 0.410750 0.048000
0.181719 0.410750 0.048000
0.308149 0.410750 0.048000
0.429386 0.410750 0.048000
0.547369 0.410750 0.048000
0.662990 0.410750 0.048000
0.776763 0.410750 0.048000
0.889021 0.410750 0.048000
1.000000 0.410750 0.048000
0.040000 0.530086 0.048000
0.181719 0.530086 0.048000
0.308149 0.530086 0.048000
0.429386 0.530086 0.048000
0.547369 0.530086 0.048000
0.662990 0.530086 0.048000
0.776763 0.530086 0.048000
0.889021 0.530086 0.048000
1.000000 0.530086 0.048000
0.040000 0.648520 0.048000
0.181719 0.648520 0.048000
0.308149 0.648520 0.048000
0.429386 0.648520 0.048000
0.547369 0.648520 0.048000
0.662990 0.648520 0.048000
0.776763 0.648520 0.048000
0.889021 0.648520 0.048000
1.000000 0.648520 0.048000
0.040000 0.766241 0.048000
0.181719 0.766241 0.048000
0.308149 0.766241 0.048000
0.429386 0.766241 0.048000
0.547369 0.766241 0.048000
0.662990 0.766241 0.048000
0.776763 0.766241 0.048000
0.889021 0.766241 0.048000
1.000000 0.766241 0.048000
0.040000 0.883372 0.048000
0.181719 0.883372 0.048000
0.308149 0.883372 0.048000
0.429386 0.883372 0.048000
0.547369 0.883372 0.048000
0.662990 0.883372 0.048000
0.776763 0.883372 0.048000
0.889021 0.883372 0.048000
1.000000 0.883372 0.048000
0.040000 1.000000 0.048000
0.181719 1.000000 0.048000
0.308149 1.000000 0.048000
0.429386 1.000000 0.048000
0.547369 1.000000 0.048000
0.662990 1.000000 0.048000
0.776763 1.000000 0.048000
0.889021 1.000000 0.048000
1.000000 1.000000 0.048000
0.040000 0.040000 0.153924
0.181719 0.040000 0.153924
0.308149 0.040000 0.153924
0.429386 0.040000 0.153924
0.547369 0.040000 0.153924
0.662990 0.040000 0.153924
0.776763 0.040000 0.153924
0.889021 0.040000 0.153924
1.000000 0.040000 0.153924
0.040000 0.167724 0.153924
0.181719 0.167724 0.153924
0.308149 0.167724 0.153924
0.429386 0.167724 0.153924
0.547369 0.167724 0.153924
0.662990 0.167724 0.153924
0.776763 0.167724 0.153924
0.889021 0.167724 0.153924
1.000000 0.167724 0.153924
0.040000 0.290192 0.153924
0.181719 0.290192 0.153924
0.308149 0.290192 0.153924
0.429386 0.290192 0.153924
0.547369 0.290192 0.153924
0.662990 0.290192 0.153924
0.776763 0.290192 0.153924
0.889021 0.290192 0.153924
1.000000 0.290192 0.153924
0.040000 0.410750 0.153924
0.181719 0.410750 0.153924
0.308149 0.410750 0.153924
0.429386 0.410750 0.153924
0.547369 0.410750 0.153924
0.662990 0.410750 0.153924
0.776763 0.410750 0.153924
0.889021 0.410750 0.153924
1.000000 0.410750 0.153924
0.040000 0.530086 0.153924
0.181719 0.530086 0.153924
0.308149 0.530086 0.153924
0.429386 0.530086 0.153924
0.547369 0.530086 0.153924
0.662990 0.530086 0.153924
0.776763 0.530086 0.153924
0.889021 0.530086 0.153924
1.000000 0.530086 0.153924
0.040000 0.648520 0.153924
0.181719 0.648520 0.153924
0.308149 0.648520 0.153924
0.429386 0.648520 0.153924
0.547369 0.648520 0.153924
0.662990 0.648520 0.153924
0.776763 0.648520 0.153924
0.889021 0.648520 0.153924
1.000000 0.648520 0.153924
0.040000 0.766241 0.153924
0.181719 0.766241 0.153924
0.308149 0.766241 0.153924
0.429386 0.766241 0.153924
0.547369 0.766241 0.153924
0.662990 0.766241 0.153924
0.776763 0.766241 0.153924
0.889021 0.766241 0.153924
1.000000 0.766241 0.153924
0.040000 0.883372 0.153924
0.181719 0.883372 0.153924
0.308149 0.883372 0.153924
0.429386 0.883372 0.153924
0.547369 0.883372 0.153924
0.662990 0.883372 0.153924
0.776763 0.883372 0.153924
0.889021 0.883372 0.153924
1.000000 0.883372 0.153924
0.040000 1.000000 0.153924
0.181719 1.000000 0.153924
0.308149 1.000000 0.153924
0.429386 1.000000 0.153924
0.547369 1.000000 0.153924
0.662990 1.000000 0.153924
0.776763 1.000000 0.153924
0.889021 1.000000 0.153924
1.000000 1.000000 0.153924
0.040000 0.040000 0.268845
0.181719 0.040000 0.268845
0.308149 0.040000 0.268845
0.429386 0.040000 0.268845
0.547369 0.040000 0.268845
0.662990 0.040000 0.268845
0.776763 0.040000 0.268845
0.889021 0.040000 0.268845
1.000000 0.040000 0.268845
0.040000 0.167724 0.268845
0.181719 0.167724 0.268845
0.308149 0.167724 0.268845
0.429386 0.167724 0.268845
0.547369 0.167724 0.268845
0.662990 0.167724 0.268845
0.776763 0.167724 0.268845
0.889021 0.167724 0.268845
1.000000 0.167724 0.268845
0.040000 0.290192 0.268845
0.181719 0.290192 0.268845
0.308149 0.290192 0.268845
0.429386 0.290192 0.268845
0.547369 0.290192 0.268845
0.662990 0.290192 0.268845
0.776763 0.290192 0.268845
0.889021 0.290192 0.268845
1.000000 0.290192 0.268845
0.040000 0.410750 0.268845
0.181719 0.410750 0.268845
0.308149 0.410750 0.268845
0.429386 0.410750 0.268845
0.547369 0.410750 0.268845
0.662990 0.410750 0.268845
0.776763 0.410750 0.268845
0.889021 0.410750 0.268845
1.000000 0.410750 0.268845
0.040000 0.530086 0.268845
0.181719 0.530086 0.268845
0.308149 0.530086 0.268845
0.429386 0.530086 0.268845
0.547369 0.530086 0.268845
0.662990 0.530086 0.268845
0.776763 0.530086 0.268845
0.889021 0.530086 0.268845
1.000000 0.530086 0.268845
0.040000 0.648520 0.268845
0.181719 0.648520 0.268845
0.308149 0.648520 0.268845
0.429386 0.648520 0.268845
0.547369 0.648520 0.268845
0.662990 0.648520 0.268845
0.776763 0.648520 0.268845
0.889021 0.648520 0.268845
1.000000 0.648520 0.268845
0.040000 0.766241 0.268845
0.181719 0.766241 0.268845
0.308149 0.766241 0.268845
0.429386 0.766241 0.268845
0.547369 0.766241 0.268845
0.662990 0.766241 0.268845
0.776763 0.766241 0.268845
0.889021 0.766241 0.268845
1.000000 0.766241 0.268845
0.040000 0.883372 0.268845
0.181719 0.883372 0.268845
0.308149 0.883372 0.268845
0.429386 0.883372 0.268845
0.547369 0.883372 0.268845
0.662990 0.883372 0.268845
0.776763 0.883372 0.268845
0.889021 0.883372 0.268845
1.000000 0.883372 0.268845
0.040000 1.000000 0.268845
0.181719 1.000000 0.268845
0.308149 1.000000 0.268845
0.429386 1.000000 0.268845
0.547369 1.000000 0.268845
0.662990 1.000000 0.268845
0.776763 1.000000 0.268845
0.889021 1.000000 0.268845
1.000000 1.000000 0.268845
0.040000 0.040000 0.387425
0.181719 0.040000 0.387425
0.308149 0.040000 0.387425
0.429386 0.040000 0.387425
0.547369 0.040000 0.387425
0.662990 0.040000 0.387425
0.776763 0.040000 0.387425
0.889021 0.040000 0.387425
1.000000 0.040000 0.387425
0.040000 0.167724 0.387425
0.181719 0.167724 0.387425
0.308149 0.167724 0.387425
0.429386 0.167724 0.387425
0.547369 0.167724 0.387425
0.662990 0.167724 0.387425
0.776763 0.167724 0.387425
0.889021 0.167724 0.387425
1.000000 0.167724 0.387425
0.040000 0.290192 0.387425
0.181719 0.290192 0.387425
0.308149 0.290192 0.387425
0.429386 0.290192 0.387425
0.547369 0.290192 0.387425
0.662990 0.290192 0.387425
0.776763 0.290192 0.387425
0.889021 0.290192 0.387425
1.000000 0.290192 0.387425
0.040000 0.410750 0.387425
0.181719 0.410750 0.387425
0.308149 0.410750 0.387425
0.429386 0.410750 0.387425
0.547369 0.410750 0.387425
0.662990 0.410750 0.387425
0.776763 0.410750 0.387425
0.889021 0.410750 0.387425
1.000000 0.410750 0.387425
0.040000 0.530086 0.387425
0.181719 0.530086 0.387425
0.308149 0.530086 0.387425
0.429386 0.530086 0.387425
0.547369 0.530086 0.387425
0.662990 0.530086 0.387425
0.776763 0.530086 0.387425
0.889021 0.530086 0.387425
1.000000 0.530086 0.387425
0.040000 0.648520 0.387425
0.181719 0.648520 0.387425
0.308149 0.648520 0.387425
0.429386 0.648520 0.387425
0.547369 0.648520 0.387425
0.662990 0.648520 0.387425
0.776763 0.648520 0.387425
0.889021 0.648520 0.387425
1.000000 0.648520 0.387425
0.040000 0.766241 0.387425
0.181719 0.766241 0.387425
0.308149 0.766241 0.387425
0.429386 0.766241 0.387425
0.547369 0.766241 0.387425
0.662990 0.766241 0.387425
0.776763 0.766241 0.387425
0.889021 0.766241 0.387425
1.000000 0.766241 0.387425
0.040000 0.883372 0.387425
0.181719 0.883372 0.387425
0.308149 0.883372 0.387425
0.429386 0.883372 0.387425
0.547369 0.883372 0.387425
0.662990 0.883372 0.387425
0.776763 0.883372 0.387425
0.889021 0.883372 0.387425
1.000000 0.883372 0.387425
0.040000 1.000000 0.387425
0.181719 1.000000 0.387425
0.308149 1.000000 0.387425
0.429386 1.000000 0.387425
0.547369 1.000000 0.387425
0.662990 1.000000 0.387425
0.776763 1.000000 0.387425
0.889021 1.000000 0.387425
1.000000 1.000000 0.387425
0.040000 0.040000 0.508447
0.181719 0.040000 0.508447
0.308149 0.040000 0.508447
0.429386 0.040000 0.508447
0.547369 0.040000 0.508447
0.662990 0.040000 0.508447
0.776763 0.040000 0.508447
0.889021 0.040000 0.508447
1.000000 0.040000 0.508447
0.040000 0.167724 0.508447
0.181719 0.167724 0.508447
0.308149 0.167724 0.508447
0.429386 0.167724 0.508447
0.547369 0.167724 0.508447
0.662990 0.167724 0.508447
0.776763 0.167724 0.508447
0.889021 0.167724 0.508447
1.000000 0.167724 0.508447
0.040000 0.290192 0.508447
0.181719 0.290192 0.508447
0.308149 0.290192 0.508447
0.429386 0.290192 0.508447
0.547369 0.290192 0.508447
0.662990 0.290192 0.508447
0.776763 0.290192 0.508447
0.889021 0.290192 0.508447
1.000000 0.290192 0.508447
0.040000 0.410750 0.508447
0.181719 0.410750 0.508447
0.308149 0.410750 0.508447
0.429386 0.410750 0.508447
0.547369 0.410750 0.508447
0.662990 0.410750 0.508447
0.776763 0.410750 0.508447
0.889021 0.410750 0.508447
1.000000 0.410750 0.508447
0.040000 0.530086 0.508447
0.181719 0.530086 0.508447
0.308149 0.530086 0.508447
0.429386 0.530086 0.508447
0.547369 0.530086 0.508447
0.662990 0.530086 0.508447
0.776763 0.530086 0.508447
0.889021 0.530086 0.508447
1.000000 0.530086 0.508447
0.040000 0.648520 0.508447
0.181719 0.648520 0.508447
0.308149 0.648520 0.508447
0.429386 0.648520 0.508447
0.547369 0.648520 0.508447
0.662990 0.648520 0.508447
0.776763 0.648520 0.508447
0.889021 0.648520 0.508447
1.000000 0.648520 0.508447
0.040000 0.766241 0.508447
0.181719 0.766241 0.508447
0.308149 0.766241 0.508447
0.429386 0.766241 0.508447
0.547369 0.766241 0.508447
0.662990 0.766241 0.508447
0.776763 0.766241 0.508447
0.889021 0.766241 0.508447
1.000000 0.766241 0.508447
0.040000 0.883372 0.508447
0.181719 0.883372 0.508447
0.308149 0.883372 0.508447
0.429386 0.883372 0.508447
0.547369 0.883372 0.508447
0.662990 0.883372 0.508447
0.776763 0.883372 0.508447
0.889021 0.883372 0.508447
1.000000 0.883372 0.508447
0.040000 1.000000 0.508447
0.181719 1.000000 0.508447
0.308149 1.000000 0.508447
0.429386 1.000000 0.508447
0.547369 1.000000 0.508447
0.662990 1.000000 0.508447
0.776763 1.000000 0.508447
0.889021 1.000000 0.508447
1.000000 1.000000 0.508447
0.040000 0.040000 0.631316
0.181719 0.040000 0.631316
0.308149 0.040000 0.631316
0.429386 0.040000 0.631316
0.547369 0.040000 0.631316
0.662990 0.040000 0.631316
0.776763 0.040000 0.631316
0.889021 0.040000 0.631316
1.000000 0.040000 0.631316
0.040000 0.167724 0.631316
0.181719 0.167724 0.631316
0.308149 0.167724 0.631316
0.429386 0.167724 0.631316
0.547369 0.167724 0.631316
0.662990 0.167724 0.631316
0.776763 0.167724 0.631316
0.889021 0.167724 0.631316
1.000000 0.167724 0.631316
0.040000 0.290192 0.631316
0.181719 0.290192 0.631316
0.308149 0.290192 0.631316
0.429386 0.290192 0.631316
0.547369 0.290192 0.631316
0.662990 0.290192 0.631316
0.776763 0.290192 0.631316
0.889021 0.290192 0.631316
1.000000 0.290192 0.631316
0.040000 0.410750 0.631316
0.181719 0.410750 0.631316
0.308149 0.410750 0.631316
0.429386 0.410750 0.631316
0.547369 0.410750 0.631316
0.662990 0.410750 0.631316
0.776763 0.410750 0.631316
0.889021 0.410750 0.631316
1.000000 0.410750 0.631316
0.040000 0.530086 0.631316
0.181719 0.530086 0.631316
0.308149 0.530086 0.631316
0.429386 0.530086 0.631316
0.547369 0.530086 0.631316
0.662990 0.530086 0.631316
0.776763 0.530086 0.631316
0.889021 0.530086 0.631316
1.000000 0.530086 0.631316
0.040000 0.648520 0.631316
0.181719 0.648520 0.631316
0.308149 0.648520 0.631316
0.429386 0.648520 0.631316
0.547369 0.648520 0.631316
0.662990 0.648520 0.631316
0.776763 0.648520 0.631316
0.889021 0.648520 0.631316
1.000000 0.648520 0.631316
0.040000 0.766241 0.631316
0.181719 0.766241 0.631316
0.308149 0.766241 0.631316
0.429386 0.766241 0.631316
0.547369 0.766241 0.631316
0.662990 0.766241 0.631316
0.776763 0.766241 0.631316
0.889021 0.766241 0.631316
1.000000 0.766241 0.631316
0.040000 0.883372 0.631316
0.181719 0.883372 0.631316
0.308149 0.883372 0.631316
0.429386 0.883372 0.631316
0.547369 0.883372 0.631316
0.662990 0.883372 0.631316
0.776763 0.883372 0.631316
0.889021 0.883372 0.631316
1.000000 0.883372 0.631316
0.040000 1.000000 0.631316
0.181719 1.000000 0.631316
0.308149 1.000000 0.631316
0.429386 1.000000 0.631316
0.547369 1.000000 0.631316
0.662990 1.000000 0.631316
0.776763 1.000000 0.631316
0.889021 1.000000 0.631316
1.000000 1.000000 0.631316
0.040000 0.040000 0.755679
0.181719 0.040000 0.755679
0.308149 0.040000 0.755679
0.429386 0.040000 0.755679
0.547369 0.040000 0.755679
0.662990 0.040000 0.755679
0.776763 0.040000 0.755679
0.889021 0.040000 0.755679
1.000000 0.040000 0.755679
0.040000 0.167724 0.755679
0.181719 0.167724 0.755679
0.308149 0.167724 0.755679
0.429386 0.167724 0.755679
0.547369 0.167724 0.755679
0.662990 0.167724 0.755679
0.776763 0.167724 0.755679
0.889021 0.167724 0.755679
1.000000 0.167724 0.755679
0.040000 0.290192 0.755679
0.181719 0.290192 0.755679
0.308149 0.290192 0.755679
0.429386 0.290192 0.755679
0.547369 0.290192 0.755679
0.662990 0.290192 0.755679
0.776763 0.290192 0.755679
0.889021 0.290192 0.755679
1.000000 0.290192 0.755679
0.040000 0.410750 0.755679
0.181719 0.410750 0.755679
0.308149 0.410750 0.755679
0.429386 0.410750 0.755679
0.547369 0.410750 0.755679
0.662990 0.410750 0.755679
0.776763 0.410750 0.755679
0.889021 0.410750 0.755679
1.000000 0.410750 0.755679
0.040000 0.530086 0.755679
0.181719 0.530086 0.755679
0.308149 0.530086 0.755679
0.429386 0.530086 0.755679
0.547369 0.530086 0.755679
0.662990 0.530086 0.755679
0.776763 0.530086 0.755679
0.889021 0.530086 0.755679
1.000000 0.530086 0.755679
0.040000 0.648520 0.755679
0.181719 0.648520 0.755679
0.308149 0.648520 0.755679
0.429386 0.648520 0.755679
0.547369 0.648520 0.755679
0.662990 0.648520 0.755679
0.776763 0.648520 0.755679
0.889021 0.648520 0.755679
1.000000 0.648520 0.755679
0.040000 0.766241 0.755679
0.181719 0.766241 0.755679
0.308149 0.766241 0.755679
0.429386 0.766241 0.755679
0.547369 0.766241 0.755679
0.662990 0.766241 0.755679
0.776763 0.766241 0.755679
0.889021 0.766241 0.755679
1.000000 0.766241 0.755679
0.040000 0.883372 0.755679
0.181719 0.883372 0.755679
0.308149 0.883372 0.755679
0.429386 0.883372 0.755679
0.547369 0.883372 0.755679
0.662990 0.883372 0.755679
0.776763 0.883372 0.755679
0.889021 0.883372 0.755679
1.000000 0.883372 0.755679
0.040000 1.000000 0.755679
0.181719 1.000000 0.755679
0.308149 1.000000 0.755679
0.429386 1.000000 0.755679
0.547369 1.000000 0.755679
0.662990 1.000000 0.755679
0.776763 1.000000 0.755679
0.889021 1.000000 0.755679
1.000000 1.000000 0.755679
0.040000 0.040000 0.881297
0.181719 0.040000 0.881297
0.308149 0.040000 0.881297
0.429386 0.040000 0.881297
0.547369 0.040000 0.881297
0.662990 0.040000 0.881297
0.776763 0.040000 0.881297
0.889021 0.040000 0.881297
1.000000 0.040000 0.881297
0.040000 0.167724 0.881297
0.181719 0.167724 0.881297
0.308149 0.167724 0.881297
0.429386 0.167724 0.881297
0.547369 0.167724 0.881297
0.662990 0.167724 0.881297
0.776763 0.167724 0.881297
0.889021 0.167724 0.881297
1.000000 0.167724 0.881297
0.040000 0.290192 0.881297
0.181719 0.290192 0.881297
0.308149 0.290192 0.881297
0.429386 0.290192 0.881297
0.547369 0.290192 0.881297
0.662990 0.290192 0.881297
0.776763 0.290192 0.881297
0.889021 0.290192 0.881297
1.000000 0.290192 0.881297
0.040000 0.410750 0.881297
0.181719 0.410750 0.881297
0.308149 0.410750 0.881297
0.429386 0.410750 0.881297
0.547369 0.410750 0.881297
0.662990 0.410750 0.881297
0.776763 0.410750 0.881297
0.889021 0.410750 0.881297
1.000000 0.410750 0.881297
0.040000 0.530086 0.881297
0.181719 0.530086 0.881297
0.308149 0.530086 0.881297
0.429386 0.530086 0.881297
0.547369 0.530086 0.881297
0.662990 0.530086 0.881297
0.776763 0.530086 0.881297
0.889021 0.530086 0.881297
1.000000 0.530086 0.881297
0.040000 0.648520 0.881297
0.181719 0.648520 0.881297
0.308149 0.648520 0.881297
0.429386 0.648520 0.881297
0.547369 0.648520 0.881297
0.662990 0.648520 0.881297
0.776763 0.648520 0.881297
0.889021 0.648520 0.881297
1.000000 0.648520 0.881297
0.040000 0.766241 0.881297
0.181719 0.766241 0.881297
0.308149 0.766241 0.881297
0.429386 0.766241 0.881297
0.547369 0.766241 0.881297
0.662990 0.766241 0.881297
0.776763 0.766241 0.881297
0.889021 0.766241 0.881297
1.000000 0.766241 0.881297
0.040000 0.883372 0.881297
0.181719 0.883372 0.881297
0.308149 0.883372 0.881297
0.429386 0.883372 0.881297
0.547369 0.883372 0.881297
0.662990 0.883372 0.881297
0.776763 0.883372 0.881297
0.889021 0.883372 0.881297
1.000000 0.883372 0.881297
0.040000 1.000000 0.881297
0.181719 1.000000 0.881297
0.308149 1.000000 0.881297
0.429386 1.000000 0.881297
0.547369 1.000000 0.881297
0.662990 1.000000 0.881297
0.776763 1.000000 0.881297
0.889021 1.000000 0.881297
1.000000 1.000000 0.881297
0.040000 0.040000 1.000000
0.181719 0.040000 1.000000
0.308149 0.040000 1.000000
0.429386 0.040000 1.000000
0.547369 0.040000 1.000000
0.662990 0.040000 1.000000
0.776763 0.040000 1.000000
0.889021 0.040000 1.000000
1.000000 0.040000 1.000000
0.040000 0.167724 1.000000
0.181719 0.167724 1.000000
0.308149 0.167724 1.000000
0.429386 0.167724 1.000000
0.547369 0.167724 1.000000
0.662990 0.167724 1.000000
0.776763 0.167724 1.000000
0.889021 0.167724 1.000000
1.000000 0.167724 1.000000
0.040000 0.290192 1.000000
0.181719 0.290192 1.000000
0.308149 0.290192 1.000000
0.429386 0.290192 1.000000
0.547369 0.290192 1.000000
0.662990 0.290192 1.000000
0.776763 0.290192 1.000000
0.889021 0.290192 1.000000
1.000000 0.290192 1.000000
0.040000 0.410750 1.000000
0.181719 0.410750 1.000000
0.308149 0.410750 1.000000
0.429386 0.410750 1.000000
0.547369 0.410750 1.000000
0.662990 0.410750 1.000000
0.776763 0.410750 1.000000
0.889021 0.410750 1.000000
1.000000 0.410750 1.000000
0.040000 0.530086 1.000000
0.181719 0.530086 1.000000
0.308149 0.530086 1.000000
0.429386 0.530086 1.000000
0.547369 0.530086 1.000000
0.662990 0.530086 1.000000
0.776763 0.530086 1.000000
0.889021 0.530086 1.000000
1.000000 0.530086 1.000000
0.040000 0.648520 1.000000
0.181719 0.648520 1.000000
0.308149 0.648520 1.000000
0.429386 0.648520 1.000000
0.547369 0.648520 1.000000
0.662990 0.648520 1.000000
0.776763 0.648520 1.000000
0.889021 0.648520 1.000000
1.000000 0.648520 1.000000
0.040000 0.766241 1.000000
0.181719 0.766241 1.000000
0.308149 0.766241 1.000000
0.429386 0.766241 1.000000
0.547369 0.766241 1.000000
0.662990 0.766241 1.000000
0.776763 0.766241 1.000000
0.889021 0.766241 1.000000
1.000000 0.766241 1.000000
0.040000 0.883372 1.000000
0.181719 0.883372 1.000000
0.308149 0.883372 1.000000
0.429386 0.883372 1.000000
0.547369 0.883372 1.000000
0.662990 0.883372 1.000000
0.776763 0.883372 1.000000
0.889021 0.883372 1.000000
1.000000 0.883372 1.000000
0.040000 1.000000 1.000000
0.181719 1.000000 1.000000
0.308149 1.000000 1.000000
0.429386 1.000000 1.000000
0.547369 1.000000 1.000000
0.662990 1.000000 1.000000
0.776763 1.000000 1.000000
0.889021 1.000000 1.000000
1.000000 1.000000 1.000000
