fixtures/luts/warm-film.cube
# Lifted shadows and warm highlights
# Generated by scripts/make_luts.py — part of immich-addons, MIT licensed.
TITLE "warm-film"
LUT_3D_SIZE 17
DOMAIN_MIN 0.0 0.0 0.0
DOMAIN_MAX 1.0 1.0 1.0
0.040000 0.040000 0.048000
0.114900 0.040000 0.048000
0.181719 0.040000 0.048000
0.245794 0.040000 0.048000
0.308149 0.040000 0.048000
0.369256 0.040000 0.048000
0.429386 0.040000 0.048000
0.488715 0.040000 0.048000
0.547369 0.040000 0.048000
0.605437 0.040000 0.048000
0.662990 0.040000 0.048000
0.720083 0.040000 0.048000
0.776763 0.040000 0.048000
0.833065 0.040000 0.048000
0.889021 0.040000 0.048000
0.944659 0.040000 0.048000
1.000000 0.040000 0.048000
0.040000 0.105204 0.048000
0.114900 0.105204 0.048000
0.181719 0.105204 0.048000
0.245794 0.105204 0.048000
0.308149 0.105204 0.048000
0.369256 0.105204 0.048000
0.429386 0.105204 0.048000
0.488715 0.105204 0.048000
0.547369 0.105204 0.048000
0.605437 0.105204 0.048000
0.662990 0.105204 0.048000
0.720083 0.105204 0.048000
0.776763 0.105204 0.048000
0.833065 0.105204 0.048000
0.889021 0.105204 0.048000
0.944659 0.105204 0.048000
1.000000 0.105204 0.048000
0.040000 0.167724 0.048000
0.114900 0.167724 0.048000
0.181719 0.167724 0.048000
0.245794 0.167724 0.048000
0.308149 0.167724 0.048000
0.369256 0.167724 0.048000
0.429386 0.167724 0.048000
0.488715 0.167724 0.048000
0.547369 0.167724 0.048000
0.605437 0.167724 0.048000
0.662990 0.167724 0.048000
0.720083 0.167724 0.048000
0.776763 0.167724 0.048000
0.833065 0.167724 0.048000
0.889021 0.167724 0.048000
0.944659 0.167724 0.048000
1.000000 0.167724 0.048000
0.040000 0.229270 0.048000
0.114900 0.229270 0.048000
0.181719 0.229270 0.048000
0.245794 0.229270 0.048000
0.308149 0.229270 0.048000
0.369256 0.229270 0.048000
0.429386 0.229270 0.048000
0.488715 0.229270 0.048000
0.547369 0.229270 0.048000
0.605437 0.229270 0.048000
0.662990 0.229270 0.048000
0.720083 0.229270 0.048000
0.776763 0.229270 0.048000
0.833065 0.229270 0.048000
0.889021 0.229270 0.048000
0.944659 0.229270 0.048000
1.000000 0.229270 0.048000
0.040000 0.290192 0.048000
0.114900 0.290192 0.048000
0.181719 0.290192 0.048000
0.245794 0.290192 0.048000
0.308149 0.290192 0.048000
0.369256 0.290192 0.048000
0.429386 0.290192 0.048000
0.488715 0.290192 0.048000
0.547369 0.290192 0.048000
0.605437 0.290192 0.048000
0.662990 0.290192 0.048000
0.720083 0.290192 0.048000
0.776763 0.290192 0.048000
0.833065 0.290192 0.048000
0.889021 0.290192 0.048000
0.944659 0.290192 0.048000
1.000000 0.290192 0.048000
0.040000 0.350653 0.048000
0.114900 0.350653 0.048000
0.181719 0.350653 0.048000
0.245794 0.350653 0.048000
0.308149 0.350653 0.048000
0.369256 0.350653 0.048000
0.429386 0.350653 0.048000
0.488715 0.350653 0.048000
0.547369 0.350653 0.048000
0.605437 0.350653 0.048000
0.662990 0.350653 0.048000
0.720083 0.350653 0.048000
0.776763 0.350653 0.048000
0.833065 0.350653 0.048000
0.889021 0.350653 0.048000
0.944659 0.350653 0.048000
1.000000 0.350653 0.048000
0.040000 0.410750 0.048000
0.114900 0.410750 0.048000
0.181719 0.410750 0.048000
0.245794 0.410750 0.048000
0.308149 0.410750 0.048000
0.369256 0.410750 0.048000
0.429386 0.410750 0.048000
0.488715 0.410750 0.048000
0.547369 0.410750 0.048000
0.605437 0.410750 0.048000
0.662990 0.410750 0.048000
0.720083 0.410750 0.048000
0.776763 0.410750 0.048000
0.833065 0.410750 0.048000
0.889021 0.410750 0.048000
0.944659 0.410750 0.048000
1.000000 0.410750 0.048000
0.040000 0.470546 0.048000
0.114900 0.470546 0.048000
0.181719 0.470546 0.048000
0.245794 0.470546 0.048000
0.308149 0.470546 0.048000
0.369256 0.470546 0.048000
0.429386 0.470546 0.048000
0.488715 0.470546 0.048000
0.547369 0.470546 0.048000
0.605437 0.470546 0.048000
0.662990 0.470546 0.048000
0.720083 0.470546 0.048000
0.776763 0.470546 0.048000
0.833065 0.470546 0.048000
0.889021 0.470546 0.048000
0.944659 0.470546 0.048000
1.000000 0.470546 0.048000
0.040000 0.530086 0.048000
0.114900 0.530086 0.048000
0.181719 0.530086 0.048000
0.245794 0.530086 0.048000
0.308149 0.530086 0.048000
0.369256 0.530086 0.048000
0.429386 0.530086 0.048000
0.488715 0.530086 0.048000
0.547369 0.530086 0.048000
0.605437 0.530086 0.048000
0.662990 0.530086 0.048000
0.720083 0.530086 0.048000
0.776763 0.530086 0.048000
0.833065 0.530086 0.048000
0.889021 0.530086 0.048000
0.944659 0.530086 0.048000
1.000000 0.530086 0.048000
0.040000 0.589402 0.048000
0.114900 0.589402 0.048000
0.181719 0.589402 0.048000
0.245794 0.589402 0.048000
0.308149 0.589402 0.048000
0.369256 0.589402 0.048000
0.429386 0.589402 0.048000
0.488715 0.589402 0.048000
0.547369 0.589402 0.048000
0.605437 0.589402 0.048000
0.662990 0.589402 0.048000
0.720083 0.589402 0.048000
0.776763 0.589402 0.048000
0.833065 0.589402 0.048000
0.889021 0.589402 0.048000
0.944659 0.589402 0.048000
1.000000 0.589402 0.048000
0.040000 0.648520 0.048000
0.114900 0.648520 0.048000
0.181719 0.648520 0.048000
0.245794 0.648520 0.048000
0.308149 0.648520 0.048000
0.369256 0.648520 0.048000
0.429386 0.648520 0.048000
0.488715 0.648520 0.048000
0.547369 0.648520 0.048000
0.605437 0.648520 0.048000
0.662990 0.648520 0.048000
0.720083 0.648520 0.048000
0.776763 0.648520 0.048000
0.833065 0.648520 0.048000
0.889021 0.648520 0.048000
0.944659 0.648520 0.048000
1.000000 0.648520 0.048000
0.040000 0.707461 0.048000
0.114900 0.707461 0.048000
0.181719 0.707461 0.048000
0.245794 0.707461 0.048000
0.308149 0.707461 0.048000
0.369256 0.707461 0.048000
0.429386 0.707461 0.048000
0.488715 0.707461 0.048000
0.547369 0.707461 0.048000
0.605437 0.707461 0.048000
0.662990 0.707461 0.048000
0.720083 0.707461 0.048000
0.776763 0.707461 0.048000
0.833065 0.707461 0.048000
0.889021 0.707461 0.048000
0.944659 0.707461 0.048000
1.000000 0.707461 0.048000
0.040000 0.766241 0.048000
0.114900 0.766241 0.048000
0.181719 0.766241 0.048000
0.245794 0.766241 0.048000
0.308149 0.766241 0.048000
0.369256 0.766241 0.048000
0.429386 0.766241 0.048000
0.488715 0.766241 0.048000
0.547369 0.766241 0.048000
0.605437 0.766241 0.048000
0.662990 0.766241 0.048000
0.720083 0.766241 0.048000
0.776763 0.766241 0.048000
0.833065 0.766241 0.048000
0.889021 0.766241 0.048000
0.944659 0.766241 0.048000
1.000000 0.766241 0.048000
0.040000 0.824874 0.048000
0.114900 0.824874 0.048000
0.181719 0.824874 0.048000
0.245794 0.824874 0.048000
0.308149 0.824874 0.048000
0.369256 0.824874 0.048000
0.429386 0.824874 0.048000
0.488715 0.824874 0.048000
0.547369 0.824874 0.048000
0.605437 0.824874 0.048000
0.662990 0.824874 0.048000
0.720083 0.824874 0.048000
0.776763 0.824874 0.048000
0.833065 0.824874 0.048000
0.889021 0.824874 0.048000
0.944659 0.824874 0.048000
1.000000 0.824874 0.048000
0.040000 0.883372 0.048000
0.114900 0.883372 0.048000
0.181719 0.883372 0.048000
0.245794 0.883372 0.048000
0.308149 0.883372 0.048000
0.369256 0.883372 0.048000
0.429386 0.883372 0.048000
0.488715 0.883372 0.048000
0.547369 0.883372 0.048000
0.605437 0.883372 0.048000
0.662990 0.883372 0.048000
0.720083 0.883372 0.048000
0.776763 0.883372 0.048000
0.833065 0.883372 0.048000
0.889021 0.883372 0.048000
0.944659 0.883372 0.048000
1.000000 0.883372 0.048000
0.040000 0.941744 0.048000
0.114900 0.941744 0.048000
0.181719 0.941744 0.048000
0.245794 0.941744 0.048000
0.308149 0.941744 0.048000
0.369256 0.941744 0.048000
0.429386 0.941744 0.048000
0.488715 0.941744 0.048000
0.547369 0.941744 0.048000
0.605437 0.941744 0.048000
0.662990 0.941744 0.048000
0.720083 0.941744 0.048000
0.776763 0.941744 0.048000
0.833065 0.941744 0.048000
0.889021 0.941744 0.048000
0.944659 0.941744 0.048000
1.000000 0.941744 0.048000
0.040000 1.000000 0.048000
0.114900 1.000000 0.048000
0.181719 1.000000 0.048000
0.245794 1.000000 0.048000
0.308149 1.000000 0.048000
0.369256 1.000000 0.048000
0.429386 1.000000 0.048000
0.488715 1.000000 0.048000
0.547369 1.000000 0.048000
0.605437 1.000000 0.048000
0.662990 1.000000 0.048000
0.720083 1.000000 0.048000
0.776763 1.000000 0.048000
0.833065 1.000000 0.048000
0.889021 1.000000 0.048000
0.944659 1.000000 0.048000
1.000000 1.000000 0.048000
0.040000 0.040000 0.098805
0.114900 0.040000 0.098805
0.181719 0.040000 0.098805
0.245794 0.040000 0.098805
0.308149 0.040000 0.098805
0.369256 0.040000 0.098805
0.429386 0.040000 0.098805
0.488715 0.040000 0.098805
0.547369 0.040000 0.098805
0.605437 0.040000 0.098805
0.662990 0.040000 0.098805
0.720083 0.040000 0.098805
0.776763 0.040000 0.098805
0.833065 0.040000 0.098805
0.889021 0.040000 0.098805
0.944659 0.040000 0.098805
1.000000 0.040000 0.098805
0.040000 0.105204 0.098805
0.114900 0.105204 0.098805
0.181719 0.105204 0.098805
0.245794 0.105204 0.098805
0.308149 0.105204 0.098805
0.369256 0.105204 0.098805
0.429386 0.105204 0.098805
0.488715 0.105204 0.098805
0.547369 0.105204 0.098805
0.605437 0.105204 0.098805
0.662990 0.105204 0.098805
0.720083 0.105204 0.098805
0.776763 0.105204 0.098805
0.833065 0.105204 0.098805
0.889021 0.105204 0.098805
0.944659 0.105204 0.098805
1.000000 0.105204 0.098805
0.040000 0.167724 0.098805
0.114900 0.167724 0.098805
0.181719 0.167724 0.098805
0.245794 0.167724 0.098805
0.308149 0.167724 0.098805
0.369256 0.167724 0.098805
0.429386 0.167724 0.098805
0.488715 0.167724 0.098805
0.547369 0.167724 0.098805
0.605437 0.167724 0.098805
0.662990 0.167724 0.098805
0.720083 0.167724 0.098805
0.776763 0.167724 0.098805
0.833065 0.167724 0.098805
0.889021 0.167724 0.098805
0.944659 0.167724 0.098805
1.000000 0.167724 0.098805
0.040000 0.229270 0.098805
0.114900 0.229270 0.098805
0.181719 0.229270 0.098805
0.245794 0.229270 0.098805
0.308149 0.229270 0.098805
0.369256 0.229270 0.098805
0.429386 0.229270 0.098805
0.488715 0.229270 0.098805
0.547369 0.229270 0.098805
0.605437 0.229270 0.098805
0.662990 0.229270 0.098805
0.720083 0.229270 0.098805
0.776763 0.229270 0.098805
0.833065 0.229270 0.098805
0.889021 0.229270 0.098805
0.944659 0.229270 0.098805
1.000000 0.229270 0.098805
0.040000 0.290192 0.098805
0.114900 0.290192 0.098805
0.181719 0.290192 0.098805
0.245794 0.290192 0.098805
0.308149 0.290192 0.098805
0.369256 0.290192 0.098805
0.429386 0.290192 0.098805
0.488715 0.290192 0.098805
0.547369 0.290192 0.098805
0.605437 0.290192 0.098805
0.662990 0.290192 0.098805
0.720083 0.290192 0.098805
0.776763 0.290192 0.098805
0.833065 0.290192 0.098805
0.889021 0.290192 0.098805
0.944659 0.290192 0.098805
1.000000 0.290192 0.098805
0.040000 0.350653 0.098805
0.114900 0.350653 0.098805
0.181719 0.350653 0.098805
0.245794 0.350653 0.098805
0.308149 0.350653 0.098805
0.369256 0.350653 0.098805
0.429386 0.350653 0.098805
0.488715 0.350653 0.098805
0.547369 0.350653 0.098805
0.605437 0.350653 0.098805
0.662990 0.350653 0.098805
0.720083 0.350653 0.098805
0.776763 0.350653 0.098805
0.833065 0.350653 0.098805
0.889021 0.350653 0.098805
0.944659 0.350653 0.098805
1.000000 0.350653 0.098805
0.040000 0.410750 0.098805
0.114900 0.410750 0.098805
0.181719 0.410750 0.098805
0.245794 0.410750 0.098805
0.308149 0.410750 0.098805
0.369256 0.410750 0.098805
0.429386 0.410750 0.098805
0.488715 0.410750 0.098805
0.547369 0.410750 0.098805
0.605437 0.410750 0.098805
0.662990 0.410750 0.098805
0.720083 0.410750 0.098805
0.776763 0.410750 0.098805
0.833065 0.410750 0.098805
0.889021 0.410750 0.098805
0.944659 0.410750 0.098805
1.000000 0.410750 0.098805
0.040000 0.470546 0.098805
0.114900 0.470546 0.098805
0.181719 0.470546 0.098805
0.245794 0.470546 0.098805
0.308149 0.470546 0.098805
0.369256 0.470546 0.098805
0.429386 0.470546 0.098805
0.488715 0.470546 0.098805
0.547369 0.470546 0.098805
0.605437 0.470546 0.098805
0.662990 0.470546 0.098805
0.720083 0.470546 0.098805
0.776763 0.470546 0.098805
0.833065 0.470546 0.098805
0.889021 0.470546 0.098805
0.944659 0.470546 0.098805
1.000000 0.470546 0.098805
0.040000 0.530086 0.098805
0.114900 0.530086 0.098805
0.181719 0.530086 0.098805
0.245794 0.530086 0.098805
0.308149 0.530086 0.098805
0.369256 0.530086 0.098805
0.429386 0.530086 0.098805
0.488715 0.530086 0.098805
0.547369 0.530086 0.098805
0.605437 0.530086 0.098805
0.662990 0.530086 0.098805
0.720083 0.530086 0.098805
0.776763 0.530086 0.098805
0.833065 0.530086 0.098805
0.889021 0.530086 0.098805
0.944659 0.530086 0.098805
1.000000 0.530086 0.098805
0.040000 0.589402 0.098805
0.114900 0.589402 0.098805
0.181719 0.589402 0.098805
0.245794 0.589402 0.098805
0.308149 0.589402 0.098805
0.369256 0.589402 0.098805
0.429386 0.589402 0.098805
0.488715 0.589402 0.098805
0.547369 0.589402 0.098805
0.605437 0.589402 0.098805
0.662990 0.589402 0.098805
0.720083 0.589402 0.098805
0.776763 0.589402 0.098805
0.833065 0.589402 0.098805
0.889021 0.589402 0.098805
0.944659 0.589402 0.098805
1.000000 0.589402 0.098805
0.040000 0.648520 0.098805
0.114900 0.648520 0.098805
0.181719 0.648520 0.098805
0.245794 0.648520 0.098805
0.308149 0.648520 0.098805
0.369256 0.648520 0.098805
0.429386 0.648520 0.098805
0.488715 0.648520 0.098805
0.547369 0.648520 0.098805
0.605437 0.648520 0.098805
0.662990 0.648520 0.098805
0.720083 0.648520 0.098805
0.776763 0.648520 0.098805
0.833065 0.648520 0.098805
0.889021 0.648520 0.098805
0.944659 0.648520 0.098805
1.000000 0.648520 0.098805
0.040000 0.707461 0.098805
0.114900 0.707461 0.098805
0.181719 0.707461 0.098805
0.245794 0.707461 0.098805
0.308149 0.707461 0.098805
0.369256 0.707461 0.098805
0.429386 0.707461 0.098805
0.488715 0.707461 0.098805
0.547369 0.707461 0.098805
0.605437 0.707461 0.098805
0.662990 0.707461 0.098805
0.720083 0.707461 0.098805
0.776763 0.707461 0.098805
0.833065 0.707461 0.098805
0.889021 0.707461 0.098805
0.944659 0.707461 0.098805
1.000000 0.707461 0.098805
0.040000 0.766241 0.098805
0.114900 0.766241 0.098805
0.181719 0.766241 0.098805
0.245794 0.766241 0.098805
0.308149 0.766241 0.098805
0.369256 0.766241 0.098805
0.429386 0.766241 0.098805
0.488715 0.766241 0.098805
0.547369 0.766241 0.098805
0.605437 0.766241 0.098805
0.662990 0.766241 0.098805
0.720083 0.766241 0.098805
0.776763 0.766241 0.098805
0.833065 0.766241 0.098805
0.889021 0.766241 0.098805
0.944659 0.766241 0.098805
1.000000 0.766241 0.098805
0.040000 0.824874 0.098805
0.114900 0.824874 0.098805
0.181719 0.824874 0.098805
0.245794 0.824874 0.098805
0.308149 0.824874 0.098805
0.369256 0.824874 0.098805
0.429386 0.824874 0.098805
0.488715 0.824874 0.098805
0.547369 0.824874 0.098805
0.605437 0.824874 0.098805
0.662990 0.824874 0.098805
0.720083 0.824874 0.098805
0.776763 0.824874 0.098805
0.833065 0.824874 0.098805
0.889021 0.824874 0.098805
0.944659 0.824874 0.098805
1.000000 0.824874 0.098805
0.040000 0.883372 0.098805
0.114900 0.883372 0.098805
0.181719 0.883372 0.098805
0.245794 0.883372 0.098805
0.308149 0.883372 0.098805
0.369256 0.883372 0.098805
0.429386 0.883372 0.098805
0.488715 0.883372 0.098805
0.547369 0.883372 0.098805
0.605437 0.883372 0.098805
0.662990 0.883372 0.098805
0.720083 0.883372 0.098805
0.776763 0.883372 0.098805
0.833065 0.883372 0.098805
0.889021 0.883372 0.098805
0.944659 0.883372 0.098805
1.000000 0.883372 0.098805
0.040000 0.941744 0.098805
0.114900 0.941744 0.098805
0.181719 0.941744 0.098805
0.245794 0.941744 0.098805
0.308149 0.941744 0.098805
0.369256 0.941744 0.098805
0.429386 0.941744 0.098805
0.488715 0.941744 0.098805
0.547369 0.941744 0.098805
0.605437 0.941744 0.098805
0.662990 0.941744 0.098805
0.720083 0.941744 0.098805
0.776763 0.941744 0.098805
0.833065 0.941744 0.098805
0.889021 0.941744 0.098805
0.944659 0.941744 0.098805
1.000000 0.941744 0.098805
0.040000 1.000000 0.098805
0.114900 1.000000 0.098805
0.181719 1.000000 0.098805
0.245794 1.000000 0.098805
0.308149 1.000000 0.098805
0.369256 1.000000 0.098805
0.429386 1.000000 0.098805
0.488715 1.000000 0.098805
0.547369 1.000000 0.098805
0.605437 1.000000 0.098805
0.662990 1.000000 0.098805
0.720083 1.000000 0.098805
0.776763 1.000000 0.098805
0.833065 1.000000 0.098805
0.889021 1.000000 0.098805
0.944659 1.000000 0.098805
1.000000 1.000000 0.098805
0.040000 0.040000 0.153924
0.114900 0.040000 0.153924
0.181719 0.040000 0.153924
0.245794 0.040000 0.153924
0.308149 0.040000 0.153924
0.369256 0.040000 0.153924
0.429386 0.040000 0.153924
0.488715 0.040000 0.153924
0.547369 0.040000 0.153924
0.605437 0.040000 0.153924
0.662990 0.040000 0.153924
0.720083 0.040000 0.153924
0.776763 0.040000 0.153924
0.833065 0.040000 0.153924
0.889021 0.040000 0.153924
0.944659 0.040000 0.153924
1.000000 0.040000 0.153924
0.040000 0.105204 0.153924
0.114900 0.105204 0.153924
0.181719 0.105204 0.153924
0.245794 0.105204 0.153924
0.308149 0.105204 0.153924
0.369256 0.105204 0.153924
0.429386 0.105204 0.153924
0.488715 0.105204 0.153924
0.547369 0.105204 0.153924
0.605437 0.105204 0.153924
0.662990 0.105204 0.153924
0.720083 0.105204 0.153924
0.776763 0.105204 0.153924
0.833065 0.105204 0.153924
0.889021 0.105204 0.153924
0.944659 0.105204 0.153924
1.000000 0.105204 0.153924
0.040000 0.167724 0.153924
0.114900 0.167724 0.153924
0.181719 0.167724 0.153924
0.245794 0.167724 0.153924
0.308149 0.167724 0.153924
0.369256 0.167724 0.153924
0.429386 0.167724 0.153924
0.488715 0.167724 0.153924
0.547369 0.167724 0.153924
0.605437 0.167724 0.153924
0.662990 0.167724 0.153924
0.720083 0.167724 0.153924
0.776763 0.167724 0.153924
0.833065 0.167724 0.153924
0.889021 0.167724 0.153924
0.944659 0.167724 0.153924
1.000000 0.167724 0.153924
0.040000 0.229270 0.153924
0.114900 0.229270 0.153924
0.181719 0.229270 0.153924
0.245794 0.229270 0.153924
0.308149 0.229270 0.153924
0.369256 0.229270 0.153924
0.429386 0.229270 0.153924
0.488715 0.229270 0.153924
0.547369 0.229270 0.153924
0.605437 0.229270 0.153924
0.662990 0.229270 0.153924
0.720083 0.229270 0.153924
0.776763 0.229270 0.153924
0.833065 0.229270 0.153924
0.889021 0.229270 0.153924
0.944659 0.229270 0.153924
1.000000 0.229270 0.153924
0.040000 0.290192 0.153924
0.114900 0.290192 0.153924
0.181719 0.290192 0.153924
0.245794 0.290192 0.153924
0.308149 0.290192 0.153924
0.369256 0.290192 0.153924
0.429386 0.290192 0.153924
0.488715 0.290192 0.153924
0.547369 0.290192 0.153924
0.605437 0.290192 0.153924
0.662990 0.290192 0.153924
0.720083 0.290192 0.153924
0.776763 0.290192 0.153924
0.833065 0.290192 0.153924
0.889021 0.290192 0.153924
0.944659 0.290192 0.153924
1.000000 0.290192 0.153924
0.040000 0.350653 0.153924
0.114900 0.350653 0.153924
0.181719 0.350653 0.153924
0.245794 0.350653 0.153924
0.308149 0.350653 0.153924
0.369256 0.350653 0.153924
0.429386 0.350653 0.153924
0.488715 0.350653 0.153924
0.547369 0.350653 0.153924
0.605437 0.350653 0.153924
0.662990 0.350653 0.153924
0.720083 0.350653 0.153924
0.776763 0.350653 0.153924
0.833065 0.350653 0.153924
0.889021 0.350653 0.153924
0.944659 0.350653 0.153924
1.000000 0.350653 0.153924
0.040000 0.410750 0.153924
0.114900 0.410750 0.153924
0.181719 0.410750 0.153924
0.245794 0.410750 0.153924
0.308149 0.410750 0.153924
0.369256 0.410750 0.153924
0.429386 0.410750 0.153924
0.488715 0.410750 0.153924
0.547369 0.410750 0.153924
0.605437 0.410750 0.153924
0.662990 0.410750 0.153924
0.720083 0.410750 0.153924
0.776763 0.410750 0.153924
0.833065 0.410750 0.153924
0.889021 0.410750 0.153924
0.944659 0.410750 0.153924
1.000000 0.410750 0.153924
0.040000 0.470546 0.153924
0.114900 0.470546 0.153924
0.181719 0.470546 0.153924
0.245794 0.470546 0.153924
0.308149 0.470546 0.153924
0.369256 0.470546 0.153924
0.429386 0.470546 0.153924
0.488715 0.470546 0.153924
0.547369 0.470546 0.153924
0.605437 0.470546 0.153924
0.662990 0.470546 0.153924
0.720083 0.470546 0.153924
0.776763 0.470546 0.153924
0.833065 0.470546 0.153924
0.889021 0.470546 0.153924
0.944659 0.470546 0.153924
1.000000 0.470546 0.153924
0.040000 0.530086 0.153924
0.114900 0.530086 0.153924
0.181719 0.530086 0.153924
0.245794 0.530086 0.153924
0.308149 0.530086 0.153924
0.369256 0.530086 0.153924
0.429386 0.530086 0.153924
0.488715 0.530086 0.153924
0.547369 0.530086 0.153924
0.605437 0.530086 0.153924
0.662990 0.530086 0.153924
0.720083 0.530086 0.153924
0.776763 0.530086 0.153924
0.833065 0.530086 0.153924
0.889021 0.530086 0.153924
0.944659 0.530086 0.153924
1.000000 0.530086 0.153924
0.040000 0.589402 0.153924
0.114900 0.589402 0.153924
0.181719 0.589402 0.153924
0.245794 0.589402 0.153924
0.308149 0.589402 0.153924
0.369256 0.589402 0.153924
0.429386 0.589402 0.153924
0.488715 0.589402 0.153924
0.547369 0.589402 0.153924
0.605437 0.589402 0.153924
0.662990 0.589402 0.153924
0.720083 0.589402 0.153924
0.776763 0.589402 0.153924
0.833065 0.589402 0.153924
0.889021 0.589402 0.153924
0.944659 0.589402 0.153924
1.000000 0.589402 0.153924
0.040000 0.648520 0.153924
0.114900 0.648520 0.153924
0.181719 0.648520 0.153924
0.245794 0.648520 0.153924
0.308149 0.648520 0.153924
0.369256 0.648520 0.153924
0.429386 0.648520 0.153924
0.488715 0.648520 0.153924
0.547369 0.648520 0.153924
0.605437 0.648520 0.153924
0.662990 0.648520 0.153924
0.720083 0.648520 0.153924
0.776763 0.648520 0.153924
0.833065 0.648520 0.153924
0.889021 0.648520 0.153924
0.944659 0.648520 0.153924
1.000000 0.648520 0.153924
0.040000 0.707461 0.153924
0.114900 0.707461 0.153924
0.181719 0.707461 0.153924
0.245794 0.707461 0.153924
0.308149 0.707461 0.153924
0.369256 0.707461 0.153924
0.429386 0.707461 0.153924
0.488715 0.707461 0.153924
0.547369 0.707461 0.153924
0.605437 0.707461 0.153924
0.662990 0.707461 0.153924
0.720083 0.707461 0.153924
0.776763 0.707461 0.153924
0.833065 0.707461 0.153924
0.889021 0.707461 0.153924
0.944659 0.707461 0.153924
1.000000 0.707461 0.153924
0.040000 0.766241 0.153924
0.114900 0.766241 0.153924
0.181719 0.766241 0.153924
0.245794 0.766241 0.153924
0.308149 0.766241 0.153924
0.369256 0.766241 0.153924
0.429386 0.766241 0.153924
0.488715 0.766241 0.153924
0.547369 0.766241 0.153924
0.605437 0.766241 0.153924
0.662990 0.766241 0.153924
0.720083 0.766241 0.153924
0.776763 0.766241 0.153924
0.833065 0.766241 0.153924
0.889021 0.766241 0.153924
0.944659 0.766241 0.153924
1.000000 0.766241 0.153924
0.040000 0.824874 0.153924
0.114900 0.824874 0.153924
0.181719 0.824874 0.153924
0.245794 0.824874 0.153924
0.308149 0.824874 0.153924
0.369256 0.824874 0.153924
0.429386 0.824874 0.153924
0.488715 0.824874 0.153924
0.547369 0.824874 0.153924
0.605437 0.824874 0.153924
0.662990 0.824874 0.153924
0.720083 0.824874 0.153924
0.776763 0.824874 0.153924
0.833065 0.824874 0.153924
0.889021 0.824874 0.153924
0.944659 0.824874 0.153924
1.000000 0.824874 0.153924
0.040000 0.883372 0.153924
0.114900 0.883372 0.153924
0.181719 0.883372 0.153924
0.245794 0.883372 0.153924
0.308149 0.883372 0.153924
0.369256 0.883372 0.153924
0.429386 0.883372 0.153924
0.488715 0.883372 0.153924
0.547369 0.883372 0.153924
0.605437 0.883372 0.153924
0.662990 0.883372 0.153924
0.720083 0.883372 0.153924
0.776763 0.883372 0.153924
0.833065 0.883372 0.153924
0.889021 0.883372 0.153924
0.944659 0.883372 0.153924
1.000000 0.883372 0.153924
0.040000 0.941744 0.153924
0.114900 0.941744 0.153924
0.181719 0.941744 0.153924
0.245794 0.941744 0.153924
0.308149 0.941744 0.153924
0.369256 0.941744 0.153924
0.429386 0.941744 0.153924
0.488715 0.941744 0.153924
0.547369 0.941744 0.153924
0.605437 0.941744 0.153924
0.662990 0.941744 0.153924
0.720083 0.941744 0.153924
0.776763 0.941744 0.153924
0.833065 0.941744 0.153924
0.889021 0.941744 0.153924
0.944659 0.941744 0.153924
1.000000 0.941744 0.153924
0.040000 1.000000 0.153924
0.114900 1.000000 0.153924
0.181719 1.000000 0.153924
0.245794 1.000000 0.153924
0.308149 1.000000 0.153924
0.369256 1.000000 0.153924
0.429386 1.000000 0.153924
0.488715 1.000000 0.153924
0.547369 1.000000 0.153924
0.605437 1.000000 0.153924
0.662990 1.000000 0.153924
0.720083 1.000000 0.153924
0.776763 1.000000 0.153924
0.833065 1.000000 0.153924
0.889021 1.000000 0.153924
0.944659 1.000000 0.153924
1.000000 1.000000 0.153924
0.040000 0.040000 0.210799
0.114900 0.040000 0.210799
0.181719 0.040000 0.210799
0.245794 0.040000 0.210799
0.308149 0.040000 0.210799
0.369256 0.040000 0.210799
0.429386 0.040000 0.210799
0.488715 0.040000 0.210799
0.547369 0.040000 0.210799
0.605437 0.040000 0.210799
0.662990 0.040000 0.210799
0.720083 0.040000 0.210799
0.776763 0.040000 0.210799
0.833065 0.040000 0.210799
